app/render/ocioconf/luts/Arri_LogC4_to_linear.spi1d
Version 1
From 0.000000 1.000000
Length 65537
Components 1
{
         -0.0180569961199
         -0.0180552626226
         -0.0180535288423
         -0.018051794779
         -0.0180500604325
         -0.018048325803
         -0.0180465908903
         -0.0180448556944
         -0.0180431202152
         -0.0180413844528
         -0.0180396484069
         -0.0180379120777
         -0.018036175465
         -0.0180344385689
         -0.0180327013892
         -0.0180309639259
         -0.018029226179
         -0.0180274881484
         -0.0180257498341
         -0.018024011236
         -0.0180222723541
         -0.0180205331883
         -0.0180187937387
         -0.0180170540051
         -0.0180153139874
         -0.0180135736858
         -0.0180118331
         -0.0180100922301
         -0.018008351076
         -0.0180066096377
         -0.0180048679151
         -0.0180031259082
         -0.0180013836169
         -0.0179996410411
         -0.017997898181
         -0.0179961550363
         -0.017994411607
         -0.0179926678932
         -0.0179909238947
         -0.0179891796115
         -0.0179874350435
         -0.0179856901908
         -0.0179839450532
         -0.0179821996308
         -0.0179804539234
         -0.017978707931
         -0.0179769616536
         -0.0179752150912
         -0.0179734682436
         -0.0179717211109
         -0.017969973693
         -0.0179682259898
         -0.0179664780013
         -0.0179647297274
         -0.0179629811682
         -0.0179612323235
         -0.0179594831934
         -0.0179577337777
         -0.0179559840764
         -0.0179542340895
         -0.0179524838169
         -0.0179507332586
         -0.0179489824145
         -0.0179472312846
         -0.0179454798689
         -0.0179437281672
         -0.0179419761796
         -0.017940223906
         -0.0179384713463
         -0.0179367185006
         -0.0179349653687
         -0.0179332119506
         -0.0179314582463
         -0.0179297042557
         -0.0179279499788
         -0.0179261954155
         -0.0179244405657
         -0.0179226854295
         -0.0179209300068
         -0.0179191742976
         -0.0179174183017
         -0.0179156620192
         -0.0179139054499
         -0.0179121485939
         -0.0179103914512
         -0.0179086340215
         -0.017906876305
         -0.0179051183016
         -0.0179033600112
         -0.0179016014337
         -0.0178998425692
         -0.0178980834175
         -0.0178963239787
         -0.0178945642526
         -0.0178928042393
         -0.0178910439387
         -0.0178892833507
         -0.0178875224753
         -0.0178857613125
         -0.0178839998621
         -0.0178822381242
         -0.0178804760988
         -0.0178787137856
         -0.0178769511848
         -0.0178751882963
         -0.01787342512
         -0.0178716616558
         -0.0178698979038
         -0.0178681338639
         -0.017866369536
         -0.01786460492
         -0.017862840016
         -0.017861074824
         -0.0178593093437
         -0.0178575435752
         -0.0178557775185
         -0.0178540111735
         -0.0178522445402
         -0.0178504776184
         -0.0178487104082
         -0.0178469429096
         -0.0178451751224
         -0.0178434070466
         -0.0178416386822
         -0.0178398700291
         -0.0178381010873
         -0.0178363318567
         -0.0178345623373
         -0.0178327925291
         -0.0178310224319
         -0.0178292520458
         -0.0178274813707
         -0.0178257104065
         -0.0178239391532
         -0.0178221676108
         -0.0178203957792
         -0.0178186236583
         -0.0178168512482
         -0.0178150785487
         -0.0178133055598
         -0.0178115322815
         -0.0178097587138
         -0.0178079848565
         -0.0178062107096
         -0.0178044362731
         -0.017802661547
         -0.0178008865311
         -0.0177991112255
         -0.0177973356301
         -0.0177955597448
         -0.0177937835696
         -0.0177920071045
         -0.0177902303493
         -0.0177884533042
         -0.0177866759689
         -0.0177848983435
         -0.0177831204279
         -0.0177813422221
         -0.017779563726
         -0.0177777849395
         -0.0177760058627
         -0.0177742264955
         -0.0177724468378
         -0.0177706668896
         -0.0177688866508
         -0.0177671061214
         -0.0177653253013
         -0.0177635441905
         -0.017761762789
         -0.0177599810967
         -0.0177581991135
         -0.0177564168394
         -0.0177546342744
         -0.0177528514184
         -0.0177510682713
         -0.0177492848332
         -0.0177475011039
         -0.0177457170835
         -0.0177439327718
         -0.0177421481688
         -0.0177403632745
         -0.0177385780888
         -0.0177367926118
         -0.0177350068432
         -0.0177332207831
         -0.0177314344315
         -0.0177296477882
         -0.0177278608533
         -0.0177260736267
         -0.0177242861084
         -0.0177224982982
         -0.0177207101962
         -0.0177189218023
         -0.0177171331164
         -0.0177153441386
         -0.0177135548687
         -0.0177117653067
         -0.0177099754526
         -0.0177081853063
         -0.0177063948678
         -0.017704604137
         -0.0177028131139
         -0.0177010217984
         -0.0176992301905
         -0.0176974382901
         -0.0176956460972
         -0.0176938536117
         -0.0176920608337
         -0.0176902677629
         -0.0176884743995
         -0.0176866807433
         -0.0176848867943
         -0.0176830925524
         -0.0176812980176
         -0.0176795031899
         -0.0176777080692
         -0.0176759126555
         -0.0176741169487
         -0.0176723209487
         -0.0176705246556
         -0.0176687280692
         -0.0176669311895
         -0.0176651340165
         -0.0176633365501
         -0.0176615387903
         -0.0176597407371
         -0.0176579423903
         -0.0176561437499
         -0.0176543448159
         -0.0176525455883
         -0.0176507460669
         -0.0176489462518
         -0.0176471461429
         -0.0176453457401
         -0.0176435450434
         -0.0176417440528
         -0.0176399427681
         -0.0176381411894
         -0.0176363393166
         -0.0176345371497
         -0.0176327346886
         -0.0176309319332
         -0.0176291288836
         -0.0176273255396
         -0.0176255219012
         -0.0176237179684
         -0.0176219137411
         -0.0176201092193
         -0.0176183044029
         -0.0176164992919
         -0.0176146938862
         -0.0176128881858
         -0.0176110821906
         -0.0176092759006
         -0.0176074693157
         -0.0176056624359
         -0.0176038552612
         -0.0176020477915
         -0.0176002400266
         -0.0175984319667
         -0.0175966236117
         -0.0175948149614
         -0.0175930060159
         -0.017591196775
         -0.0175893872389
         -0.0175875774073
         -0.0175857672803
         -0.0175839568578
         -0.0175821461397
         -0.0175803351261
         -0.0175785238168
         -0.0175767122119
         -0.0175749003112
         -0.0175730881147
         -0.0175712756224
         -0.0175694628343
         -0.0175676497502
         -0.0175658363701
         -0.017564022694
         -0.0175622087218
         -0.0175603944535
         -0.0175585798891
         -0.0175567650284
         -0.0175549498715
         -0.0175531344182
         -0.0175513186686
         -0.0175495026226
         -0.0175476862801
         -0.0175458696411
         -0.0175440527056
         -0.0175422354734
         -0.0175404179446
         -0.0175386001191
         -0.0175367819969
         -0.0175349635778
         -0.0175331448619
         -0.0175313258491
         -0.0175295065394
         -0.0175276869327
         -0.0175258670289
         -0.0175240468281
         -0.0175222263301
         -0.0175204055349
         -0.0175185844425
         -0.0175167630529
         -0.0175149413658
         -0.0175131193814
         -0.0175112970996
         -0.0175094745203
         -0.0175076516435
         -0.0175058284691
         -0.0175040049971
         -0.0175021812274
         -0.01750035716
         -0.0174985327948
         -0.0174967081318
         -0.017494883171
         -0.0174930579122
         -0.0174912323555
         -0.0174894065007
         -0.0174875803479
         -0.017485753897
         -0.017483927148
         -0.0174821001007
         -0.0174802727552
         -0.0174784451113
         -0.0174766171692
         -0.0174747889286
         -0.0174729603896
         -0.017471131552
         -0.017469302416
         -0.0174674729813
         -0.017465643248
         -0.017463813216
         -0.0174619828852
         -0.0174601522557
         -0.0174583213273
         -0.0174564901001
         -0.0174546585739
         -0.0174528267487
         -0.0174509946245
         -0.0174491622012
         -0.0174473294787
         -0.0174454964571
         -0.0174436631363
         -0.0174418295161
         -0.0174399955967
         -0.0174381613779
         -0.0174363268596
         -0.0174344920419
         -0.0174326569247
         -0.0174308215078
         -0.0174289857914
         -0.0174271497753
         -0.0174253134595
         -0.0174234768439
         -0.0174216399285
         -0.0174198027132
         -0.017417965198
         -0.0174161273829
         -0.0174142892677
         -0.0174124508525
         -0.0174106121371
         -0.0174087731217
         -0.017406933806
         -0.01740509419
         -0.0174032542737
         -0.0174014140571
         -0.0173995735401
         -0.0173977327226
         -0.0173958916047
         -0.0173940501861
         -0.017392208467
         -0.0173903664472
         -0.0173885241267
         -0.0173866815055
         -0.0173848385835
         -0.0173829953606
         -0.0173811518369
         -0.0173793080122
         -0.0173774638865
         -0.0173756194597
         -0.0173737747319
         -0.0173719297029
         -0.0173700843728
         -0.0173682387414
         -0.0173663928087
         -0.0173645465747
         -0.0173627000393
         -0.0173608532024
         -0.0173590060641
         -0.0173571586242
         -0.0173553108828
         -0.0173534628397
         -0.017351614495
         -0.0173497658485
         -0.0173479169002
         -0.0173460676501
         -0.0173442180981
         -0.0173423682442
         -0.0173405180883
         -0.0173386676304
         -0.0173368168704
         -0.0173349658083
         -0.017333114444
         -0.0173312627775
         -0.0173294108088
         -0.0173275585377
         -0.0173257059642
         -0.0173238530883
         -0.0173219999099
         -0.017320146429
         -0.0173182926456
         -0.0173164385595
         -0.0173145841707
         -0.0173127294793
         -0.0173108744851
         -0.017309019188
         -0.0173071635881
         -0.0173053076853
         -0.0173034514795
         -0.0173015949707
         -0.0172997381588
         -0.0172978810438
         -0.0172960236257
         -0.0172941659043
         -0.0172923078797
         -0.0172904495518
         -0.0172885909205
         -0.0172867319858
         -0.0172848727477
         -0.017283013206
         -0.0172811533608
         -0.0172792932119
         -0.0172774327595
         -0.0172755720033
         -0.0172737109433
         -0.0172718495795
         -0.0172699879119
         -0.0172681259404
         -0.0172662636649
         -0.0172644010854
         -0.0172625382019
         -0.0172606750143
         -0.0172588115225
         -0.0172569477265
         -0.0172550836262
         -0.0172532192217
         -0.0172513545127
         -0.0172494894994
         -0.0172476241817
         -0.0172457585594
         -0.0172438926326
         -0.0172420264012
         -0.0172401598651
         -0.0172382930244
         -0.0172364258788
         -0.0172345584285
         -0.0172326906734
         -0.0172308226133
         -0.0172289542483
         -0.0172270855783
         -0.0172252166032
         -0.017223347323
         -0.0172214777377
         -0.0172196078472
         -0.0172177376515
         -0.0172158671504
         -0.017213996344
         -0.0172121252322
         -0.017210253815
         -0.0172083820922
         -0.0172065100639
         -0.01720463773
         -0.0172027650905
         -0.0172008921453
         -0.0171990188943
         -0.0171971453375
         -0.0171952714749
         -0.0171933973064
         -0.0171915228319
         -0.0171896480515
         -0.017187772965
         -0.0171858975724
         -0.0171840218736
         -0.0171821458687
         -0.0171802695575
         -0.01717839294
         -0.0171765160162
         -0.0171746387859
         -0.0171727612492
         -0.0171708834061
         -0.0171690052564
         -0.0171671268
         -0.0171652480371
         -0.0171633689674
         -0.017161489591
         -0.0171596099078
         -0.0171577299178
         -0.0171558496208
         -0.0171539690169
         -0.0171520881061
         -0.0171502068881
         -0.0171483253631
         -0.0171464435309
         -0.0171445613915
         -0.0171426789449
         -0.017140796191
         -0.0171389131297
         -0.0171370297611
         -0.0171351460849
         -0.0171332621013
         -0.0171313778102
         -0.0171294932114
         -0.017127608305
         -0.0171257230909
         -0.017123837569
         -0.0171219517394
         -0.0171200656019
         -0.0171181791564
         -0.0171162924031
         -0.0171144053417
         -0.0171125179723
         -0.0171106302948
         -0.0171087423091
         -0.0171068540153
         -0.0171049654132
         -0.0171030765027
         -0.017101187284
         -0.0170992977568
         -0.0170974079212
         -0.017095517777
         -0.0170936273243
         -0.017091736563
         -0.0170898454931
         -0.0170879541144
         -0.017086062427
         -0.0170841704308
         -0.0170822781257
         -0.0170803855118
         -0.0170784925888
         -0.0170765993569
         -0.0170747058159
         -0.0170728119658
         -0.0170709178065
         -0.017069023338
         -0.0170671285603
         -0.0170652334732
         -0.0170633380768
         -0.017061442371
         -0.0170595463557
         -0.0170576500309
         -0.0170557533965
         -0.0170538564525
         -0.0170519591989
         -0.0170500616355
         -0.0170481637624
         -0.0170462655795
         -0.0170443670867
         -0.017042468284
         -0.0170405691713
         -0.0170386697486
         -0.0170367700158
         -0.0170348699729
         -0.0170329696198
         -0.0170310689565
         -0.017029167983
         -0.0170272666991
         -0.0170253651048
         -0.0170234632002
         -0.017021560985
         -0.0170196584593
         -0.0170177556231
         -0.0170158524762
         -0.0170139490187
         -0.0170120452504
         -0.0170101411713
         -0.0170082367814
         -0.0170063320807
         -0.017004427069
         -0.0170025217463
         -0.0170006161126
         -0.0169987101678
         -0.0169968039118
         -0.0169948973447
         -0.0169929904664
         -0.0169910832767
         -0.0169891757758
         -0.0169872679634
         -0.0169853598396
         -0.0169834514043
         -0.0169815426575
         -0.0169796335991
         -0.016977724229
         -0.0169758145473
         -0.0169739045538
         -0.0169719942485
         -0.0169700836313
         -0.0169681727023
         -0.0169662614613
         -0.0169643499083
         -0.0169624380433
         -0.0169605258662
         -0.0169586133769
         -0.0169567005754
         -0.0169547874617
         -0.0169528740356
         -0.0169509602972
         -0.0169490462464
         -0.0169471318832
         -0.0169452172074
         -0.0169433022191
         -0.0169413869182
         -0.0169394713046
         -0.0169375553783
         -0.0169356391392
         -0.0169337225873
         -0.0169318057226
         -0.0169298885449
         -0.0169279710543
         -0.0169260532506
         -0.0169241351339
         -0.0169222167041
         -0.016920297961
         -0.0169183789048
         -0.0169164595353
         -0.0169145398525
         -0.0169126198562
         -0.0169106995466
         -0.0169087789235
         -0.0169068579868
         -0.0169049367366
         -0.0169030151728
         -0.0169010932952
         -0.0168991711039
         -0.0168972485989
         -0.01689532578
         -0.0168934026472
         -0.0168914792005
         -0.0168895554397
         -0.016887631365
         -0.0168857069761
         -0.0168837822731
         -0.0168818572559
         -0.0168799319245
         -0.0168780062787
         -0.0168760803186
         -0.0168741540442
         -0.0168722274552
         -0.0168703005518
         -0.0168683733338
         -0.0168664458012
         -0.0168645179539
         -0.0168625897919
         -0.0168606613152
         -0.0168587325236
         -0.0168568034172
         -0.0168548739959
         -0.0168529442596
         -0.0168510142083
         -0.0168490838419
         -0.0168471531604
         -0.0168452221637
         -0.0168432908519
         -0.0168413592247
         -0.0168394272822
         -0.0168374950243
         -0.016835562451
         -0.0168336295622
         -0.0168316963579
         -0.016829762838
         -0.0168278290025
         -0.0168258948513
         -0.0168239603843
         -0.0168220256016
         -0.016820090503
         -0.0168181550885
         -0.0168162193581
         -0.0168142833117
         -0.0168123469492
         -0.0168104102706
         -0.0168084732759
         -0.016806535965
         -0.0168045983378
         -0.0168026603943
         -0.0168007221345
         -0.0167987835582
         -0.0167968446655
         -0.0167949054563
         -0.0167929659305
         -0.0167910260881
         -0.0167890859291
         -0.0167871454533
         -0.0167852046607
         -0.0167832635513
         -0.0167813221251
         -0.0167793803819
         -0.0167774383218
         -0.0167754959446
         -0.0167735532503
         -0.0167716102389
         -0.0167696669103
         -0.0167677232645
         -0.0167657793014
         -0.0167638350209
         -0.0167618904231
         -0.0167599455078
         -0.016758000275
         -0.0167560547247
         -0.0167541088568
         -0.0167521626712
         -0.0167502161679
         -0.0167482693469
         -0.0167463222081
         -0.0167443747514
         -0.0167424269768
         -0.0167404788842
         -0.0167385304736
         -0.016736581745
         -0.0167346326982
         -0.0167326833333
         -0.0167307336501
         -0.0167287836487
         -0.0167268333289
         -0.0167248826908
         -0.0167229317342
         -0.0167209804592
         -0.0167190288656
         -0.0167170769534
         -0.0167151247226
         -0.0167131721731
         -0.0167112193049
         -0.0167092661179
         -0.016707312612
         -0.0167053587872
         -0.0167034046435
         -0.0167014501808
         -0.016699495399
         -0.0166975402981
         -0.0166955848781
         -0.0166936291388
         -0.0166916730803
         -0.0166897167025
         -0.0166877600053
         -0.0166858029887
         -0.0166838456526
         -0.016681887997
         -0.0166799300218
         -0.016677971727
         -0.0166760131125
         -0.0166740541783
         -0.0166720949243
         -0.0166701353504
         -0.0166681754567
         -0.016666215243
         -0.0166642547094
         -0.0166622938557
         -0.0166603326819
         -0.0166583711879
         -0.0166564093738
         -0.0166544472394
         -0.0166524847846
         -0.0166505220096
         -0.0166485589141
         -0.0166465954981
         -0.0166446317617
         -0.0166426677046
         -0.016640703327
         -0.0166387386287
         -0.0166367736096
         -0.0166348082698
         -0.0166328426091
         -0.0166308766276
         -0.0166289103251
         -0.0166269437017
         -0.0166249767572
         -0.0166230094916
         -0.0166210419049
         -0.0166190739969
         -0.0166171057677
         -0.0166151372173
         -0.0166131683454
         -0.0166111991522
         -0.0166092296375
         -0.0166072598013
         -0.0166052896435
         -0.0166033191641
         -0.0166013483631
         -0.0165993772403
         -0.0165974057958
         -0.0165954340294
         -0.0165934619411
         -0.0165914895309
         -0.0165895167988
         -0.0165875437446
         -0.0165855703683
         -0.0165835966698
         -0.0165816226492
         -0.0165796483063
         -0.0165776736411
         -0.0165756986536
         -0.0165737233437
         -0.0165717477113
         -0.0165697717564
         -0.0165677954789
         -0.0165658188789
         -0.0165638419561
         -0.0165618647106
         -0.0165598871424
         -0.0165579092513
         -0.0165559310374
         -0.0165539525005
         -0.0165519736407
         -0.0165499944578
         -0.0165480149518
         -0.0165460351227
         -0.0165440549703
         -0.0165420744948
         -0.0165400936959
         -0.0165381125737
         -0.0165361311281
         -0.016534149359
         -0.0165321672664
         -0.0165301848502
         -0.0165282021104
         -0.016526219047
         -0.0165242356598
         -0.0165222519489
         -0.0165202679141
         -0.0165182835554
         -0.0165162988729
         -0.0165143138663
         -0.0165123285357
         -0.0165103428809
         -0.0165083569021
         -0.016506370599
         -0.0165043839717
         -0.0165023970201
         -0.0165004097441
         -0.0164984221438
         -0.0164964342189
         -0.0164944459696
         -0.0164924573956
         -0.0164904684971
         -0.0164884792739
         -0.0164864897259
         -0.0164844998532
         -0.0164825096556
         -0.0164805191331
         -0.0164785282857
         -0.0164765371133
         -0.0164745456159
         -0.0164725537934
         -0.0164705616457
         -0.0164685691728
         -0.0164665763746
         -0.0164645832512
         -0.0164625898023
         -0.0164605960281
         -0.0164586019284
         -0.0164566075031
         -0.0164546127523
         -0.0164526176758
         -0.0164506222737
         -0.0164486265458
         -0.0164466304922
         -0.0164446341126
         -0.0164426374072
         -0.0164406403759
         -0.0164386430185
         -0.0164366453351
         -0.0164346473256
         -0.0164326489899
         -0.016430650328
         -0.0164286513398
         -0.0164266520253
         -0.0164246523845
         -0.0164226524172
         -0.0164206521234
         -0.0164186515031
         -0.0164166505562
         -0.0164146492826
         -0.0164126476824
         -0.0164106457554
         -0.0164086435016
         -0.0164066409209
         -0.0164046380134
         -0.0164026347789
         -0.0164006312173
         -0.0163986273287
         -0.016396623113
         -0.0163946185701
         -0.0163926137
         -0.0163906085026
         -0.0163886029778
         -0.0163865971257
         -0.0163845909461
         -0.016382584439
         -0.0163805776044
         -0.0163785704421
         -0.0163765629523
         -0.0163745551347
         -0.0163725469893
         -0.0163705385161
         -0.0163685297151
         -0.0163665205861
         -0.0163645111291
         -0.0163625013441
         -0.0163604912311
         -0.0163584807899
         -0.0163564700205
         -0.0163544589228
         -0.0163524474969
         -0.0163504357426
         -0.0163484236599
         -0.0163464112487
         -0.016344398509
         -0.0163423854408
         -0.0163403720439
         -0.0163383583184
         -0.0163363442641
         -0.0163343298811
         -0.0163323151692
         -0.0163303001284
