app/render/ocioconf/luts/Blackmagic_FilmWideGamut_Gen5_to_linear.spi1d
Version 1
From 0.000000 1.000000
Length 65537
Components 1
{
         -0.0111625002661
         -0.0111606582194
         -0.0111588161727
         -0.011156974126
         -0.0111551320792
         -0.0111532900325
         -0.0111514479858
         -0.0111496059391
         -0.0111477638924
         -0.0111459218457
         -0.011144079799
         -0.0111422377523
         -0.0111403957056
         -0.0111385536589
         -0.0111367116121
         -0.0111348695654
         -0.0111330275187
         -0.011131185472
         -0.0111293434253
         -0.0111275013786
         -0.0111256593319
         -0.0111238172852
         -0.0111219752385
         -0.0111201331917
         -0.011118291145
         -0.0111164490983
         -0.0111146070516
         -0.0111127650049
         -0.0111109229582
         -0.0111090809115
         -0.0111072388648
         -0.0111053968181
         -0.0111035547713
         -0.0111017127246
         -0.0110998706779
         -0.0110980286312
         -0.0110961865845
         -0.0110943445378
         -0.0110925024911
         -0.0110906604444
         -0.0110888183977
         -0.0110869763509
         -0.0110851343042
         -0.0110832922575
         -0.0110814502108
         -0.0110796081641
         -0.0110777661174
         -0.0110759240707
         -0.011074082024
         -0.0110722399773
         -0.0110703979305
         -0.0110685558838
         -0.0110667138371
         -0.0110648717904
         -0.0110630297437
         -0.011061187697
         -0.0110593456503
         -0.0110575036036
         -0.0110556615569
         -0.0110538195101
         -0.0110519774634
         -0.0110501354167
         -0.01104829337
         -0.0110464513233
         -0.0110446092766
         -0.0110427672299
         -0.0110409251832
         -0.0110390831365
         -0.0110372410897
         -0.011035399043
         -0.0110335569963
         -0.0110317149496
         -0.0110298729029
         -0.0110280308562
         -0.0110261888095
         -0.0110243467628
         -0.0110225047161
         -0.0110206626694
         -0.0110188206226
         -0.0110169785759
         -0.0110151365292
         -0.0110132944825
         -0.0110114524358
         -0.0110096103891
         -0.0110077683424
         -0.0110059262957
         -0.011004084249
         -0.0110022422022
         -0.0110004001555
         -0.0109985581088
         -0.0109967160621
         -0.0109948740154
         -0.0109930319687
         -0.010991189922
         -0.0109893478753
         -0.0109875058286
         -0.0109856637818
         -0.0109838217351
         -0.0109819796884
         -0.0109801376417
         -0.010978295595
         -0.0109764535483
         -0.0109746115016
         -0.0109727694549
         -0.0109709274082
         -0.0109690853614
         -0.0109672433147
         -0.010965401268
         -0.0109635592213
         -0.0109617171746
         -0.0109598751279
         -0.0109580330812
         -0.0109561910345
         -0.0109543489878
         -0.010952506941
         -0.0109506648943
         -0.0109488228476
         -0.0109469808009
         -0.0109451387542
         -0.0109432967075
         -0.0109414546608
         -0.0109396126141
         -0.0109377705674
         -0.0109359285206
         -0.0109340864739
         -0.0109322444272
         -0.0109304023805
         -0.0109285603338
         -0.0109267182871
         -0.0109248762404
         -0.0109230341937
         -0.010921192147
         -0.0109193501002
         -0.0109175080535
         -0.0109156660068
         -0.0109138239601
         -0.0109119819134
         -0.0109101398667
         -0.01090829782
         -0.0109064557733
         -0.0109046137266
         -0.0109027716799
         -0.0109009296331
         -0.0108990875864
         -0.0108972455397
         -0.010895403493
         -0.0108935614463
         -0.0108917193996
         -0.0108898773529
         -0.0108880353062
         -0.0108861932595
         -0.0108843512127
         -0.010882509166
         -0.0108806671193
         -0.0108788250726
         -0.0108769830259
         -0.0108751409792
         -0.0108732989325
         -0.0108714568858
         -0.0108696148391
         -0.0108677727923
         -0.0108659307456
         -0.0108640886989
         -0.0108622466522
         -0.0108604046055
         -0.0108585625588
         -0.0108567205121
         -0.0108548784654
         -0.0108530364187
         -0.0108511943719
         -0.0108493523252
         -0.0108475102785
         -0.0108456682318
         -0.0108438261851
         -0.0108419841384
         -0.0108401420917
         -0.010838300045
         -0.0108364579983
         -0.0108346159515
         -0.0108327739048
         -0.0108309318581
         -0.0108290898114
         -0.0108272477647
         -0.010825405718
         -0.0108235636713
         -0.0108217216246
         -0.0108198795779
         -0.0108180375311
         -0.0108161954844
         -0.0108143534377
         -0.010812511391
         -0.0108106693443
         -0.0108088272976
         -0.0108069852509
         -0.0108051432042
         -0.0108033011575
         -0.0108014591107
         -0.010799617064
         -0.0107977750173
         -0.0107959329706
         -0.0107940909239
         -0.0107922488772
         -0.0107904068305
         -0.0107885647838
         -0.0107867227371
         -0.0107848806904
         -0.0107830386436
         -0.0107811965969
         -0.0107793545502
         -0.0107775125035
         -0.0107756704568
         -0.0107738284101
         -0.0107719863634
         -0.0107701443167
         -0.01076830227
         -0.0107664602232
         -0.0107646181765
         -0.0107627761298
         -0.0107609340831
         -0.0107590920364
         -0.0107572499897
         -0.010755407943
         -0.0107535658963
         -0.0107517238496
         -0.0107498818028
         -0.0107480397561
         -0.0107461977094
         -0.0107443556627
         -0.010742513616
         -0.0107406715693
         -0.0107388295226
         -0.0107369874759
         -0.0107351454292
         -0.0107333033824
         -0.0107314613357
         -0.010729619289
         -0.0107277772423
         -0.0107259351956
         -0.0107240931489
         -0.0107222511022
         -0.0107204090555
         -0.0107185670088
         -0.010716724962
         -0.0107148829153
         -0.0107130408686
         -0.0107111988219
         -0.0107093567752
         -0.0107075147285
         -0.0107056726818
         -0.0107038306351
         -0.0107019885884
         -0.0107001465416
         -0.0106983044949
         -0.0106964624482
         -0.0106946204015
         -0.0106927783548
         -0.0106909363081
         -0.0106890942614
         -0.0106872522147
         -0.010685410168
         -0.0106835681212
         -0.0106817260745
         -0.0106798840278
         -0.0106780419811
         -0.0106761999344
         -0.0106743578877
         -0.010672515841
         -0.0106706737943
         -0.0106688317476
         -0.0106669897009
         -0.0106651476541
         -0.0106633056074
         -0.0106614635607
         -0.010659621514
         -0.0106577794673
         -0.0106559374206
         -0.0106540953739
         -0.0106522533272
         -0.0106504112805
         -0.0106485692337
         -0.010646727187
         -0.0106448851403
         -0.0106430430936
         -0.0106412010469
         -0.0106393590002
         -0.0106375169535
         -0.0106356749068
         -0.0106338328601
         -0.0106319908133
         -0.0106301487666
         -0.0106283067199
         -0.0106264646732
         -0.0106246226265
         -0.0106227805798
         -0.0106209385331
         -0.0106190964864
         -0.0106172544397
         -0.0106154123929
         -0.0106135703462
         -0.0106117282995
         -0.0106098862528
         -0.0106080442061
         -0.0106062021594
         -0.0106043601127
         -0.010602518066
         -0.0106006760193
         -0.0105988339725
         -0.0105969919258
         -0.0105951498791
         -0.0105933078324
         -0.0105914657857
         -0.010589623739
         -0.0105877816923
         -0.0105859396456
         -0.0105840975989
         -0.0105822555521
         -0.0105804135054
         -0.0105785714587
         -0.010576729412
         -0.0105748873653
         -0.0105730453186
         -0.0105712032719
         -0.0105693612252
         -0.0105675191785
         -0.0105656771317
         -0.010563835085
         -0.0105619930383
         -0.0105601509916
         -0.0105583089449
         -0.0105564668982
         -0.0105546248515
         -0.0105527828048
         -0.0105509407581
         -0.0105490987114
         -0.0105472566646
         -0.0105454146179
         -0.0105435725712
         -0.0105417305245
         -0.0105398884778
         -0.0105380464311
         -0.0105362043844
         -0.0105343623377
         -0.010532520291
         -0.0105306782442
         -0.0105288361975
         -0.0105269941508
         -0.0105251521041
         -0.0105233100574
         -0.0105214680107
         -0.010519625964
         -0.0105177839173
         -0.0105159418706
         -0.0105140998238
         -0.0105122577771
         -0.0105104157304
         -0.0105085736837
         -0.010506731637
         -0.0105048895903
         -0.0105030475436
         -0.0105012054969
         -0.0104993634502
         -0.0104975214034
         -0.0104956793567
         -0.01049383731
         -0.0104919952633
         -0.0104901532166
         -0.0104883111699
         -0.0104864691232
         -0.0104846270765
         -0.0104827850298
         -0.010480942983
         -0.0104791009363
         -0.0104772588896
         -0.0104754168429
         -0.0104735747962
         -0.0104717327495
         -0.0104698907028
         -0.0104680486561
         -0.0104662066094
         -0.0104643645626
         -0.0104625225159
         -0.0104606804692
         -0.0104588384225
         -0.0104569963758
         -0.0104551543291
         -0.0104533122824
         -0.0104514702357
         -0.010449628189
         -0.0104477861422
         -0.0104459440955
         -0.0104441020488
         -0.0104422600021
         -0.0104404179554
         -0.0104385759087
         -0.010436733862
         -0.0104348918153
         -0.0104330497686
         -0.0104312077219
         -0.0104293656751
         -0.0104275236284
         -0.0104256815817
         -0.010423839535
         -0.0104219974883
         -0.0104201554416
         -0.0104183133949
         -0.0104164713482
         -0.0104146293015
         -0.0104127872547
         -0.010410945208
         -0.0104091031613
         -0.0104072611146
         -0.0104054190679
         -0.0104035770212
         -0.0104017349745
         -0.0103998929278
         -0.0103980508811
         -0.0103962088343
         -0.0103943667876
         -0.0103925247409
         -0.0103906826942
         -0.0103888406475
         -0.0103869986008
         -0.0103851565541
         -0.0103833145074
         -0.0103814724607
         -0.0103796304139
         -0.0103777883672
         -0.0103759463205
         -0.0103741042738
         -0.0103722622271
         -0.0103704201804
         -0.0103685781337
         -0.010366736087
         -0.0103648940403
         -0.0103630519935
         -0.0103612099468
         -0.0103593679001
         -0.0103575258534
         -0.0103556838067
         -0.01035384176
         -0.0103519997133
         -0.0103501576666
         -0.0103483156199
         -0.0103464735731
         -0.0103446315264
         -0.0103427894797
         -0.010340947433
         -0.0103391053863
         -0.0103372633396
         -0.0103354212929
         -0.0103335792462
         -0.0103317371995
         -0.0103298951527
         -0.010328053106
         -0.0103262110593
         -0.0103243690126
         -0.0103225269659
         -0.0103206849192
         -0.0103188428725
         -0.0103170008258
         -0.0103151587791
         -0.0103133167324
         -0.0103114746856
         -0.0103096326389
         -0.0103077905922
         -0.0103059485455
         -0.0103041064988
         -0.0103022644521
         -0.0103004224054
         -0.0102985803587
         -0.010296738312
         -0.0102948962652
         -0.0102930542185
         -0.0102912121718
         -0.0102893701251
         -0.0102875280784
         -0.0102856860317
         -0.010283843985
         -0.0102820019383
         -0.0102801598916
         -0.0102783178448
         -0.0102764757981
         -0.0102746337514
         -0.0102727917047
         -0.010270949658
         -0.0102691076113
         -0.0102672655646
         -0.0102654235179
         -0.0102635814712
         -0.0102617394244
         -0.0102598973777
         -0.010258055331
         -0.0102562132843
         -0.0102543712376
         -0.0102525291909
         -0.0102506871442
         -0.0102488450975
         -0.0102470030508
         -0.010245161004
         -0.0102433189573
         -0.0102414769106
         -0.0102396348639
         -0.0102377928172
         -0.0102359507705
         -0.0102341087238
         -0.0102322666771
         -0.0102304246304
         -0.0102285825836
         -0.0102267405369
         -0.0102248984902
         -0.0102230564435
         -0.0102212143968
         -0.0102193723501
         -0.0102175303034
         -0.0102156882567
         -0.01021384621
         -0.0102120041632
         -0.0102101621165
         -0.0102083200698
         -0.0102064780231
         -0.0102046359764
         -0.0102027939297
         -0.010200951883
         -0.0101991098363
         -0.0101972677896
         -0.0101954257429
         -0.0101935836961
         -0.0101917416494
         -0.0101898996027
         -0.010188057556
         -0.0101862155093
         -0.0101843734626
         -0.0101825314159
         -0.0101806893692
         -0.0101788473225
         -0.0101770052757
         -0.010175163229
         -0.0101733211823
         -0.0101714791356
         -0.0101696370889
         -0.0101677950422
         -0.0101659529955
         -0.0101641109488
         -0.0101622689021
         -0.0101604268553
         -0.0101585848086
         -0.0101567427619
         -0.0101549007152
         -0.0101530586685
         -0.0101512166218
         -0.0101493745751
         -0.0101475325284
         -0.0101456904817
         -0.0101438484349
         -0.0101420063882
         -0.0101401643415
         -0.0101383222948
         -0.0101364802481
         -0.0101346382014
         -0.0101327961547
         -0.010130954108
         -0.0101291120613
         -0.0101272700145
         -0.0101254279678
         -0.0101235859211
         -0.0101217438744
         -0.0101199018277
         -0.010118059781
         -0.0101162177343
         -0.0101143756876
         -0.0101125336409
         -0.0101106915941
         -0.0101088495474
         -0.0101070075007
         -0.010105165454
         -0.0101033234073
         -0.0101014813606
         -0.0100996393139
         -0.0100977972672
         -0.0100959552205
         -0.0100941131737
         -0.010092271127
         -0.0100904290803
         -0.0100885870336
         -0.0100867449869
         -0.0100849029402
         -0.0100830608935
         -0.0100812188468
         -0.0100793768001
         -0.0100775347534
         -0.0100756927066
         -0.0100738506599
         -0.0100720086132
         -0.0100701665665
         -0.0100683245198
         -0.0100664824731
         -0.0100646404264
         -0.0100627983797
         -0.010060956333
         -0.0100591142862
         -0.0100572722395
         -0.0100554301928
         -0.0100535881461
         -0.0100517460994
         -0.0100499040527
         -0.010048062006
         -0.0100462199593
         -0.0100443779126
         -0.0100425358658
         -0.0100406938191
         -0.0100388517724
         -0.0100370097257
         -0.010035167679
         -0.0100333256323
         -0.0100314835856
         -0.0100296415389
         -0.0100277994922
         -0.0100259574454
         -0.0100241153987
         -0.010022273352
         -0.0100204313053
         -0.0100185892586
         -0.0100167472119
         -0.0100149051652
         -0.0100130631185
         -0.0100112210718
         -0.010009379025
         -0.0100075369783
         -0.0100056949316
         -0.0100038528849
         -0.0100020108382
         -0.0100001687915
         -0.00999832674478
         -0.00999648469807
         -0.00999464265136
         -0.00999280060465
         -0.00999095855794
         -0.00998911651123
         -0.00998727446451
         -0.0099854324178
         -0.00998359037109
         -0.00998174832438
         -0.00997990627767
         -0.00997806423096
         -0.00997622218425
         -0.00997438013754
         -0.00997253809083
         -0.00997069604412
         -0.0099688539974
         -0.00996701195069
         -0.00996516990398
         -0.00996332785727
         -0.00996148581056
         -0.00995964376385
         -0.00995780171714
         -0.00995595967043
         -0.00995411762372
         -0.00995227557701
         -0.0099504335303
         -0.00994859148358
         -0.00994674943687
         -0.00994490739016
         -0.00994306534345
         -0.00994122329674
         -0.00993938125003
         -0.00993753920332
         -0.00993569715661
         -0.0099338551099
         -0.00993201306319
         -0.00993017101648
         -0.00992832896976
         -0.00992648692305
         -0.00992464487634
         -0.00992280282963
         -0.00992096078292
         -0.00991911873621
         -0.0099172766895
         -0.00991543464279
         -0.00991359259608
         -0.00991175054937
         -0.00990990850265
         -0.00990806645594
         -0.00990622440923
         -0.00990438236252
         -0.00990254031581
         -0.0099006982691
         -0.00989885622239
         -0.00989701417568
         -0.00989517212897
         -0.00989333008226
         -0.00989148803555
         -0.00988964598883
         -0.00988780394212
         -0.00988596189541
         -0.0098841198487
         -0.00988227780199
         -0.00988043575528
         -0.00987859370857
         -0.00987675166186
         -0.00987490961515
         -0.00987306756844
         -0.00987122552173
         -0.00986938347501
         -0.0098675414283
         -0.00986569938159
         -0.00986385733488
         -0.00986201528817
         -0.00986017324146
         -0.00985833119475
         -0.00985648914804
         -0.00985464710133
         -0.00985280505462
         -0.0098509630079
         -0.00984912096119
         -0.00984727891448
         -0.00984543686777
         -0.00984359482106
         -0.00984175277435
         -0.00983991072764
         -0.00983806868093
         -0.00983622663422
         -0.00983438458751
         -0.0098325425408
         -0.00983070049408
         -0.00982885844737
         -0.00982701640066
         -0.00982517435395
         -0.00982333230724
         -0.00982149026053
         -0.00981964821382
         -0.00981780616711
         -0.0098159641204
         -0.00981412207369
         -0.00981228002698
         -0.00981043798026
         -0.00980859593355
         -0.00980675388684
         -0.00980491184013
         -0.00980306979342
         -0.00980122774671
         -0.0097993857
         -0.00979754365329
         -0.00979570160658
         -0.00979385955987
         -0.00979201751315
         -0.00979017546644
         -0.00978833341973
         -0.00978649137302
         -0.00978464932631
         -0.0097828072796
         -0.00978096523289
         -0.00977912318618
         -0.00977728113947
         -0.00977543909276
         -0.00977359704605
         -0.00977175499933
         -0.00976991295262
         -0.00976807090591
         -0.0097662288592
         -0.00976438681249
         -0.00976254476578
         -0.00976070271907
         -0.00975886067236
         -0.00975701862565
         -0.00975517657894
         -0.00975333453222
         -0.00975149248551
         -0.0097496504388
         -0.00974780839209
         -0.00974596634538
         -0.00974412429867
         -0.00974228225196
         -0.00974044020525
         -0.00973859815854
         -0.00973675611183
         -0.00973491406512
         -0.0097330720184
         -0.00973122997169
         -0.00972938792498
         -0.00972754587827
         -0.00972570383156
         -0.00972386178485
         -0.00972201973814
         -0.00972017769143
         -0.00971833564472
         -0.00971649359801
         -0.0097146515513
         -0.00971280950458
         -0.00971096745787
         -0.00970912541116
         -0.00970728336445
         -0.00970544131774
         -0.00970359927103
         -0.00970175722432
         -0.00969991517761
         -0.0096980731309
         -0.00969623108419
         -0.00969438903747
         -0.00969254699076
         -0.00969070494405
         -0.00968886289734
         -0.00968702085063
         -0.00968517880392
         -0.00968333675721
         -0.0096814947105
         -0.00967965266379
         -0.00967781061708
         -0.00967596857037
         -0.00967412652365
         -0.00967228447694
         -0.00967044243023
         -0.00966860038352
         -0.00966675833681
         -0.0096649162901
         -0.00966307424339
         -0.00966123219668
         -0.00965939014997
         -0.00965754810326
         -0.00965570605655
         -0.00965386400983
         -0.00965202196312
         -0.00965017991641
         -0.0096483378697
         -0.00964649582299
         -0.00964465377628
         -0.00964281172957
         -0.00964096968286
         -0.00963912763615
         -0.00963728558944
         -0.00963544354272
         -0.00963360149601
         -0.0096317594493
         -0.00962991740259
         -0.00962807535588
         -0.00962623330917
         -0.00962439126246
         -0.00962254921575
         -0.00962070716904
         -0.00961886512233
         -0.00961702307562
         -0.0096151810289
         -0.00961333898219
         -0.00961149693548
         -0.00960965488877
         -0.00960781284206
         -0.00960597079535
         -0.00960412874864
         -0.00960228670193
         -0.00960044465522
         -0.00959860260851
         -0.0095967605618
         -0.00959491851508
         -0.00959307646837
         -0.00959123442166
         -0.00958939237495
         -0.00958755032824
         -0.00958570828153
         -0.00958386623482
         -0.00958202418811
         -0.0095801821414
         -0.00957834009469
         -0.00957649804797
         -0.00957465600126
         -0.00957281395455
         -0.00957097190784
         -0.00956912986113
         -0.00956728781442
         -0.00956544576771
         -0.009563603721
         -0.00956176167429
         -0.00955991962758
         -0.00955807758087
         -0.00955623553415
         -0.00955439348744
         -0.00955255144073
         -0.00955070939402
         -0.00954886734731
         -0.0095470253006
         -0.00954518325389
         -0.00954334120718
         -0.00954149916047
         -0.00953965711376
         -0.00953781506705
         -0.00953597302033
         -0.00953413097362
         -0.00953228892691
         -0.0095304468802
         -0.00952860483349
         -0.00952676278678
         -0.00952492074007
         -0.00952307869336
         -0.00952123664665
         -0.00951939459994
         -0.00951755255322
         -0.00951571050651
         -0.0095138684598
         -0.00951202641309
         -0.00951018436638
         -0.00950834231967
         -0.00950650027296
         -0.00950465822625
         -0.00950281617954
         -0.00950097413283
         -0.00949913208612
         -0.0094972900394
         -0.00949544799269
         -0.00949360594598
         -0.00949176389927
         -0.00948992185256
         -0.00948807980585
         -0.00948623775914
         -0.00948439571243
         -0.00948255366572
