app/render/ocioconf/luts/rec709_to_linear.spi1d
Version 1
From 0.000000 1.000000
Length 4096
Components 1
{
         0.0
         5.42667221453e-05
         0.000108533444291
         0.000162800162798
         0.000217066888581
         0.000271333614364
         0.000325600325596
         0.000379867036827
         0.000434133777162
         0.000488400517497
         0.000542667228729
         0.00059693393996
         0.000651200651191
         0.000705467362422
         0.000759734073654
         0.000814000843093
         0.000868267554324
         0.000922534265555
         0.000976801034994
         0.00103106768802
         0.00108533445746
         0.00113960111048
         0.00119386787992
         0.00124813453294
         0.00130240130238
         0.00135666807182
         0.00141093472484
         0.00146520149428
         0.00151946814731
         0.00157373491675
         0.00162800168619
         0.00168226833921
         0.00173653510865
         0.00179080176167
         0.00184506853111
         0.00189933518413
         0.00195360206999
         0.0020078686066
         0.00206213537604
         0.00211640214548
         0.00217066891491
         0.00222493545152
         0.00227920222096
         0.0023334689904
         0.00238773575984
         0.00244200252928
         0.00249626906589
         0.00255053583533
         0.00260480260476
         0.0026590693742
         0.00271333614364
         0.00276760268025
         0.00282186944969
         0.00287613621913
         0.00293040298857
         0.00298466975801
         0.00303893629462
         0.00309320306405
         0.00314746983349
         0.00320173660293
         0.00325600337237
         0.00331026990898
         0.00336453667842
         0.00341880344786
         0.0034730702173
         0.0035273367539
         0.00358160352334
         0.00363587029278
         0.00369013706222
         0.00374440383166
         0.00379867036827
         0.00385293713771
         0.00390720413998
         0.00396147044376
         0.00401573721319
         0.00407000398263
         0.00412427075207
         0.00417853752151
         0.00423280429095
         0.00428707106039
         0.00434133782983
         0.00439560459927
         0.00444987090304
         0.00450413767248
         0.00455840444192
         0.00461267121136
         0.0046669379808
         0.00472120475024
         0.00477547151968
         0.00482973828912
         0.00488400505856
         0.004938271828
         0.00499253813177
         0.00504680490121
         0.00510107167065
         0.00515533844009
         0.00520960520953
         0.00526387197897
         0.00531813874841
         0.00537240551785
         0.00542667228729
         0.00548093859106
         0.0055352053605
         0.00558947212994
         0.00564373889938
         0.00569800566882
         0.00575227243826
         0.0058065392077
         0.00586080597714
         0.00591507274657
         0.00596933951601
         0.00602360581979
         0.00607787258923
         0.00613213935867
         0.00618640612811
         0.00624067289755
         0.00629493966699
         0.00634920643643
         0.00640347320586
         0.0064577399753
         0.00651200674474
         0.00656627304852
         0.00662053981796
         0.0066748065874
         0.00672907335684
         0.00678334012628
         0.00683760689571
         0.00689187366515
         0.00694614043459
         0.00700040720403
         0.00705467350781
         0.00710894027725
         0.00716320704669
         0.00721747381613
         0.00727174058557
         0.007326007355
         0.00738027412444
         0.00743454089388
         0.00748880766332
         0.00754307443276
         0.00759734073654
         0.00765160750598
         0.00770587427542
         0.00776014104486
         0.00781440827996
         0.00786867458373
         0.00792294088751
         0.00797720812261
         0.00803147442639
         0.00808574166149
         0.00814000796527
         0.00819427520037
         0.00824854150414
         0.00830280873924
         0.00835707504302
         0.0084113413468
         0.0084656085819
         0.00851987488568
         0.00857414212078
         0.00862840842456
         0.00868267565966
         0.00873694196343
         0.00879120919853
         0.00884547550231
         0.00889974180609
         0.00895400904119
         0.00900827534497
         0.00906254258007
         0.00911680888385
         0.00917107611895
         0.00922534242272
         0.00927960965782
         0.0093338759616
         0.00938814226538
         0.00944240950048
         0.00949667580426
         0.00955094303936
         0.00960520934314
         0.00965947657824
         0.00971374288201
         0.00976801011711
         0.00982227642089
         0.00987654365599
         0.00993080995977
         0.00998507626355
         0.0100393434986
         0.0100936098024
         0.0101478770375
         0.0102021433413
         0.0102564105764
         0.0103106768802
         0.0103649441153
         0.0104192104191
         0.0104734767228
         0.0105277439579
         0.0105820102617
         0.0106362774968
         0.0106905438006
         0.0107448110357
         0.0107990773395
         0.0108533445746
         0.0109076108783
         0.0109618771821
         0.0110161444172
         0.011070410721
         0.0111246779561
         0.0111789442599
         0.011233211495
         0.0112874777988
         0.0113417450339
         0.0113960113376
         0.0114502785727
         0.0115045448765
         0.0115588111803
         0.0116130784154
         0.0116673447192
         0.0117216119543
         0.011775878258
         0.0118301454931
         0.0118844117969
         0.011938679032
         0.0119929453358
         0.0120472116396
         0.0121014788747
         0.0121557451785
         0.0122100124136
         0.0122642787173
         0.0123185459524
         0.0123728122562
         0.0124270794913
         0.0124813457951
         0.0125356120989
         0.012589879334
         0.0126441456378
         0.0126984128729
         0.0127526791766
         0.0128069464117
         0.0128612127155
         0.0129154799506
         0.0129697462544
         0.0130240134895
         0.0130782797933
         0.013132546097
         0.0131868133321
         0.0132410796359
         0.013295346871
         0.0133496131748
         0.0134038804099
         0.0134581467137
         0.0135124139488
         0.0135666802526
         0.0136209465563
         0.0136752137914
         0.0137294800952
         0.0137837473303
         0.0138380136341
         0.0138922808692
         0.013946547173
         0.0140008144081
         0.0140550807118
         0.0141093470156
         0.0141636142507
         0.0142178805545
         0.0142721477896
         0.0143264140934
         0.0143806813285
         0.0144349476323
         0.0144892148674
         0.0145434811711
         0.0145977474749
         0.01465201471
         0.0147062810138
         0.0147605482489
         0.0148148145527
         0.0148690817878
         0.0149233480915
         0.0149776153266
         0.0150318816304
         0.0150861488655
         0.0151404151693
         0.0151946814731
         0.0152489487082
         0.015303215012
         0.0153574822471
         0.0154117485508
         0.0154660157859
         0.0155202820897
         0.0155745493248
         0.0156288165599
         0.0156830828637
         0.0157373491675
         0.0157916154712
         0.015845881775
         0.0159001499414
         0.0159544162452
         0.016008682549
         0.0160629488528
         0.0161172170192
         0.016171483323
         0.0162257496268
         0.0162800159305
         0.0163342822343
         0.0163885504007
         0.0164428167045
         0.0164970830083
         0.0165513493121
         0.0166056174785
         0.0166598837823
         0.016714150086
         0.0167684163898
         0.0168226826936
         0.01687695086
         0.0169312171638
         0.0169854834676
         0.0170397497714
         0.0170940179378
         0.0171482842416
         0.0172025505453
         0.0172568168491
         0.0173110831529
         0.0173653513193
         0.0174196176231
         0.0174738839269
         0.0175281502306
         0.0175824183971
         0.0176366847008
         0.0176909510046
         0.0177452173084
         0.0177994836122
         0.0178537517786
         0.0179080180824
         0.0179622843862
         0.0179615281522
         0.0180157013237
         0.0180699639022
         0.0181243177503
         0.0181787591428
         0.0182332918048
         0.0182879138738
         0.0183426272124
         0.0183974280953
         0.0184523202479
         0.0185073018074
         0.0185623746365
         0.01861753501
         0.0186727885157
         0.0187281295657
         0.0187835618854
         0.018839083612
         0.0188946966082
         0.0189503990114
         0.0190061908215
         0.0190620739013
         0.019118046388
         0.0191741101444
         0.0192302651703
         0.0192865077406
         0.0193428434432
         0.0193992685527
         0.0194557830691
         0.0195123888552
         0.0195690840483
         0.0196258705109
         0.0196827482432
         0.0197397153825
         0.0197967737913
         0.0198539234698
         0.0199111625552
         0.0199684929103
         0.0200259126723
         0.0200834255666
         0.0201410278678
         0.020198719576
         0.0202565044165
         0.0203143786639
         0.0203723441809
         0.020430399105
         0.0204885471612
         0.0205467846245
         0.0206051133573
         0.0206635333598
         0.0207220446318
         0.0207806453109
         0.0208393391222
         0.0208981223404
         0.020956998691
         0.0210159644485
         0.0210750214756
         0.0211341697723
         0.0211934093386
         0.0212527401745
         0.0213121622801
         0.0213716756552
         0.0214312803
         0.0214909762144
         0.0215507633984
         0.021610641852
         0.0216706115752
         0.0217306725681
         0.0217908266932
         0.0218510702252
         0.0219114068896
         0.0219718329608
         0.0220323521644
         0.0220929626375
         0.0221536643803
         0.0222144592553
         0.0222753435373
         0.0223363209516
         0.0223973896354
         0.0224585495889
         0.0225198026747
         0.02258114703
         0.022642582655
         0.0227041095495
         0.0227657295763
         0.0228274390101
         0.0228892434388
         0.0229511372745
         0.0230131242424
         0.0230752043426
         0.0231373757124
         0.0231996383518
         0.0232619922608
         0.0233244393021
         0.0233869794756
         0.0234496109188
         0.0235123336315
         0.0235751494765
         0.0236380565912
         0.023701056838
         0.0237641483545
         0.0238273330033
         0.0238906107843
         0.0239539798349
         0.0240174401551
         0.0240809954703
         0.0241446401924
         0.0242083799094
         0.024272210896
         0.0243361331522
         0.0244001504034
         0.0244642589241
         0.0245284587145
         0.0245927534997
         0.0246571395546
         0.0247216168791
         0.0247861891985
         0.0248508527875
         0.0249156095088
         0.0249804593623
         0.0250454004854
         0.0251104366034
         0.0251755639911
         0.025240784511
         0.0253060963005
         0.0253715030849
         0.0254370030016
         0.0255025941879
         0.0255682785064
         0.0256340559572
         0.0256999265403
         0.0257658902556
         0.0258319471031
         0.025898097083
         0.0259643401951
         0.0260306764394
         0.0260971039534
         0.0261636264622
         0.0262302421033
         0.0262969508767
         0.0263637527823
         0.0264306459576
         0.0264976341277
         0.0265647154301
         0.0266318917274
         0.0266991592944
         0.0267665199935
         0.0268339756876
         0.0269015226513
         0.0269691646099
         0.0270368997008
         0.0271047279239
         0.0271726492792
         0.0272406656295
         0.0273087732494
         0.0273769758642
         0.0274452716112
         0.0275136623532
         0.0275821462274
         0.0276507232338
         0.0277193933725
         0.0277881566435
         0.0278570149094
         0.0279259663075
         0.0279950127006
         0.0280641522259
         0.0281333848834
         0.0282027125359
         0.0282721333206
         0.0283416472375
         0.0284112561494
         0.0284809581935
         0.0285507552326
         0.0286206454039
         0.0286906305701
         0.0287607088685
         0.0288308802992
         0.0289011467248
         0.0289715081453
         0.0290419626981
         0.0291125103831
         0.0291831549257
         0.0292538907379
         0.0293247234076
         0.0293956492096
         0.0294666681439
         0.029537782073
         0.0296089909971
         0.0296802930534
         0.0297516901046
         0.0298231821507
         0.0298947673291
         0.0299664475024
         0.0300382226706
         0.0301100928336
         0.030182056129
         0.0302541144192
         0.0303262658417
         0.0303985141218
         0.0304708555341
         0.0305432919413
         0.0306158214808
         0.0306884478778
         0.030761167407
         0.0308339819312
         0.0309068914503
         0.0309798959643
         0.0310529954731
         0.0311261899769
         0.031199477613
         0.0312728621066
         0.0313463397324
         0.0314199142158
         0.0314935818315
         0.0315673425794
         0.0316412001848
         0.0317151546478
         0.0317892022431
         0.0318633429706
         0.0319375805557
         0.0320119149983
         0.0320863425732
         0.0321608632803
         0.032235480845
         0.0323101952672
         0.0323850028217
         0.0324599072337
         0.032534904778
         0.0326099991798
         0.0326851867139
         0.0327604711056
         0.0328358523548
         0.0329113267362
         0.0329868979752
         0.0330625623465
         0.0331383235753
         0.0332141779363
         0.0332901291549
         0.0333661772311
         0.0334423184395
         0.0335185565054
         0.0335948914289
         0.0336713194847
         0.033747844398
         0.0338244661689
         0.033901181072
         0.0339779928327
         0.0340548977256
         0.0341318994761
         0.0342089980841
         0.0342861935496
         0.0343634821475
         0.0344408676028
         0.0345183499157
         0.0345959253609
         0.0346735976636
         0.0347513668239
         0.0348292291164
         0.0349071882665
         0.0349852442741
         0.0350633971393
         0.035141646862
         0.035219989717
         0.0352984294295
         0.0353769659996
         0.0354555957019
         0.0355343222618
         0.0356131494045
         0.0356920659542
         0.0357710830867
         0.0358501970768
         0.0359294041991
         0.036008708179
         0.0360881090164
         0.0361676067114
         0.0362471975386
         0.0363268889487
         0.036406673491
         0.0364865548909
         0.0365665331483
         0.0366466082633
         0.0367267765105
         0.0368070453405
         0.0368874073029
         0.0369678661227
         0.0370484255254
         0.0371290780604
         0.0372098274529
         0.0372906699777
         0.0373716130853
         0.0374526530504
         0.0375337861478
         0.0376150198281
         0.0376963466406
         0.0377777740359
         0.0378592945635
         0.0379409119487
         0.0380226299167
         0.0381044410169
         0.0381863489747
         0.03826835379
         0.0383504554629
         0.0384326539934
         0.0385149493814
         0.0385973416269
         0.03867983073
         0.0387624166906
         0.0388450995088
         0.0389278791845
         0.039010759443
         0.0390937328339
         0.0391768030822
         0.0392599701881
         0.0393432341516
         0.0394265986979
         0.0395100563765
         0.0395936109126
         0.0396772660315
         0.0397610142827
         0.0398448631167
         0.039928805083
         0.0400128476322
         0.0400969870389
         0.0401812233031
         0.0402655564249
         0.0403499864042
         0.0404345132411
         0.0405191406608
         0.0406038612127
         0.0406886823475
         0.0407736003399
         0.0408586151898
         0.0409437268972
         0.0410289354622
         0.0411142408848
         0.0411996468902
         0.0412851497531
         0.0413707457483
         0.0414564460516
         0.0415422394872
         0.0416281297803
         0.0417141206563
         0.0418002083898
         0.0418863929808
         0.0419726744294
         0.0420590527356
         0.0421455316246
         0.0422321073711
         0.0423187799752
         0.0424055494368
         0.0424924194813
         0.0425793863833
         0.0426664501429
         0.04275361076
         0.0428408719599
         0.0429282300174
         0.0430156849325
         0.0431032404304
         0.0431908890605
         0.0432786382735
         0.0433664880693
         0.0434544309974
         0.0435424745083
         0.043630618602
         0.043718855828
         0.0438071936369
         0.0438956283033
         0.0439841635525
         0.0440727956593
         0.0441615246236
         0.0442503541708
         0.0443392805755
         0.0444283038378
         0.0445174276829
         0.0446066483855
         0.0446959659457
         0.0447853840888
         0.0448748990893
         0.0449645146728
         0.0450542271137
         0.0451440364122
         0.0452339462936
         0.0453239530325
         0.0454140603542
         0.0455042645335
         0.0455945655704
         0.04568496719
         0.0457754656672
         0.0458660647273
         0.0459567606449
         0.0460475571454
         0.0461384505033
         0.0462294444442
         0.0463205352426
         0.0464117266238
         0.0465030148625
         0.0465943999588
         0.046685885638
         0.0467774719
         0.0468691550195
         0.0469609349966
         0.0470528155565
         0.0471447966993
         0.0472368746996
         0.0473290532827
         0.0474213287234
         0.047513704747
         0.047606177628
         0.047698751092
         0.0477914214134
         0.0478841923177
         0.0479770600796
         0.0480700284243
         0.0481630973518
         0.0482562631369
         0.0483495295048
         0.0484428927302
         0.0485363565385
         0.0486299209297
         0.0487235821784
         0.0488173440099
         0.0489112026989
         0.0490051619709
         0.0490992218256
         0.0491933785379
         0.049287635833
         0.0493819899857
         0.0494764484465
         0.0495710000396
         0.0496656559408
         0.0497604086995
         0.0498552620411
         0.0499502122402
         0.0500452667475
         0.050140414387
         0.0502356663346
         0.0503310151398
         0.0504264645278
         0.0505220144987
         0.0506176613271
         0.0507134087384
         0.0508092567325
         0.0509052015841
         0.0510012507439
         0.0510973967612
         0.051193639636
         0.051289986819
         0.0513864308596
         0.0514829754829
         0.0515796169639
         0.0516763627529
         0.0517732053995
         0.051870148629
         0.0519671924412
         0.052064333111
         0.052161578089
         0.0522589199245
         0.0523563623428
         0.0524539016187
         0.0525515452027
         0.0526492856443
         0.0527471266687
         0.0528450682759
         0.052943110466
         0.0530412532389
         0.0531394928694
         0.053237836808
         0.0533362776041
         0.0534348189831
         0.0535334609449
         0.0536321997643
         0.0537310428917
         0.0538299828768
         0.0539290271699
         0.0540281683207
         0.0541274100542
         0.0542267523706
         0.0543261952698
         0.0544257387519
         0.0545253828168
         0.0546251237392
         0.0547249689698
         0.0548249110579
         0.0549249574542
         0.055025100708
         0.0551253445446
         0.0552256889641
         0.0553261376917
         0.0554266832769
         0.0555273294449
         0.0556280761957
         0.0557289235294
         0.0558298714459
         0.0559309162199
         0.0560320653021
         0.0561333149672
         0.056234665215
         0.0563361160457
         0.0564376674592
         0.0565393194556
         0.0566410720348
         0.0567429251969
         0.0568448752165
         0.0569469295442
         0.0570490844548
         0.0571513399482
         0.0572536960244
         0.0573561526835
         0.0574587136507
         0.0575613714755
         0.0576641298831
         0.0577669888735
         0.057869952172
         0.0579730123281
         0.0580761767924
         0.0581794381142
         0.0582828037441
         0.0583862699568
         0.0584898330271
         0.0585935004056
         0.0586972720921
         0.0588011406362
         0.0589051097631
         0.0590091794729
         0.0591133534908
         0.0592176280916
         0.0593219995499
         0.0594264753163
         0.0595310553908
         0.0596357323229
         0.0597405098379
         0.0598453916609
         0.0599503703415
         0.0600554533303
         0.0601606369019
         0.0602659247816
         0.0603713095188
         0.0604767985642
         0.0605823844671
         0.0606880746782
         0.0607938691974
         0.0608997605741
         0.061005756259
         0.0611118488014
         0.0612180456519
         0.0613243468106
         0.0614307448268
         0.0615372471511
         0.0616438500583
         0.0617505535483
         0.0618573613465
         0.0619642660022
         0.062071274966
         0.062178388238
         0.0622855983675
         0.0623929128051
         0.0625003278255
         0.0626078471541
         0.0627154633403
         0.0628231838346
         0.0629310011864
         0.0630389302969
         0.063146956265
         0.0632550790906
         0.0633633062243
         0.0634716376662
         0.0635800734162
         0.0636886060238
         0.0637972429395
         0.0639059767127
         0.0640148222446
         0.0641237571836
         0.0642328038812
         0.0643419474363
         0.0644511952996
         0.064560547471
         0.0646699965
         0.0647795498371
         0.0648892074823
         0.0649989619851
         0.065108820796
         0.065218783915
         0.0653288438916
         0.0654390081763
         0.0655492767692
         0.0656596496701
         0.0657701194286
         0.0658806934953
         0.06599137187
         0.0661021471024
         0.0662130266428
         0.0663240104914
         0.0664350986481
         0.0665462836623
         0.0666575729847
         0.0667689666152
         0.0668804571033
         0.0669920518994
         0.0671037510037
         0.0672155544162
         0.0673274546862
         0.0674394592643
         0.0675515681505
         0.0676637813449
         0.0677760913968
         0.0678885057569
         0.068001024425
         0.0681136474013
         0.0682263672352
         0.0683391988277
         0.0684521272779
         0.0685651525855
         0.0686782896519
         0.0687915235758
         0.0689048618078
         0.069018304348
         0.0691318437457
         0.0692454949021
         0.0693592429161
         0.0694730952382
         0.0695870444179
         0.0697011053562
         0.0698152631521
