app/render/ocioconf/luts/S-Log2_to_linear.spi1d
Version 1
From 0.000000 1.000000
Length 4096
Components 1
{
         -0.026210633648009508
         -0.026138106172884656
         -0.026065578697759814
         -0.025993051222634962
         -0.02592052374751011
         -0.025847996272385265
         -0.025775468797260413
         -0.02570294132213556
         -0.025630413847010716
         -0.025557886371885864
         -0.025485358896761016
         -0.025412831421636167
         -0.025340303946511315
         -0.025267776471386467
         -0.02519524899626162
         -0.02512272152113677
         -0.02505019404601192
         -0.024977666570887073
         -0.02490513909576222
         -0.024832611620637376
         -0.024760084145512524
         -0.024687556670387672
         -0.024615029195262823
         -0.024542501720137975
         -0.024469974245013126
         -0.024397446769888278
         -0.024324919294763426
         -0.024252391819638577
         -0.024179864344513725
         -0.02410733686938888
         -0.024034809394264032
         -0.023962281919139183
         -0.02388975444401433
         -0.023817226968889483
         -0.023744699493764634
         -0.023672172018639782
         -0.023599644543514934
         -0.023527117068390085
         -0.023454589593265237
         -0.023382062118140385
         -0.023309534643015533
         -0.023237007167890688
         -0.02316447969276584
         -0.02309195221764099
         -0.023019424742516142
         -0.02294689726739129
         -0.022874369792266442
         -0.022801842317141593
         -0.022729314842016745
         -0.022656787366891893
         -0.022584259891767045
         -0.022511732416642193
         -0.022439204941517348
         -0.022366677466392496
         -0.022294149991267647
         -0.0222216225161428
         -0.022149095041017947
         -0.022076567565893095
         -0.022004040090768253
         -0.0219315126156434
         -0.021858985140518553
         -0.021786457665393704
         -0.021713930190268852
         -0.021641402715144004
         -0.021568875240019155
         -0.021496347764894303
         -0.021423820289769458
         -0.021351292814644606
         -0.021278765339519754
         -0.02120623786439491
         -0.021133710389270057
         -0.021061182914145205
         -0.020988655439020364
         -0.02091612796389551
         -0.02084360048877066
         -0.02077107301364581
         -0.020698545538520963
         -0.020626018063396114
         -0.020553490588271266
         -0.020480963113146414
         -0.020408435638021565
         -0.020335908162896717
         -0.020263380687771865
         -0.020190853212647016
         -0.020118325737522168
         -0.020045798262397316
         -0.019973270787272467
         -0.019900743312147622
         -0.01982821583702277
         -0.019755688361897925
         -0.019683160886773073
         -0.019610633411648225
         -0.019538105936523373
         -0.019465578461398524
         -0.019393050986273676
         -0.019320523511148824
         -0.019247996036023975
         -0.019175468560899127
         -0.019102941085774275
         -0.019030413610649426
         -0.018957886135524578
         -0.018885358660399733
         -0.01881283118527488
         -0.018740303710150032
         -0.01866777623502518
         -0.018595248759900335
         -0.018522721284775483
         -0.018450193809650635
         -0.018377666334525786
         -0.018305138859400934
         -0.018232611384276082
         -0.018160083909151237
         -0.018087556434026385
         -0.018015028958901537
         -0.01794250148377669
         -0.017869974008651836
         -0.01779744653352699
         -0.017724919058402143
         -0.01765239158327729
         -0.017579864108152446
         -0.017507336633027594
         -0.017434809157902742
         -0.017362281682777897
         -0.017289754207653045
         -0.017217226732528196
         -0.017144699257403348
         -0.017072171782278496
         -0.016999644307153648
         -0.016927116832028796
         -0.016854589356903947
         -0.016782061881779102
         -0.016709534406654254
         -0.0166370069315294
         -0.016564479456404553
         -0.0164919519812797
         -0.016419424506154853
         -0.016346897031030008
         -0.016274369555905156
         -0.016201842080780304
         -0.016129314605655455
         -0.016056787130530603
         -0.015984259655405758
         -0.01591173218028091
         -0.015839204705156058
         -0.015766677230031213
         -0.01569414975490636
         -0.015621622279781512
         -0.015549094804656662
         -0.015476567329531815
         -0.015404039854406961
         -0.015331512379282113
         -0.015258984904157266
         -0.015186457429032416
         -0.015113929953907567
         -0.015041402478782717
         -0.014968875003657867
         -0.014896347528533017
         -0.014823820053408168
         -0.014751292578283321
         -0.014678765103158471
         -0.014606237628033621
         -0.014533710152908772
         -0.014461182677783922
         -0.014388655202659075
         -0.014316127727534227
         -0.014243600252409373
         -0.014171072777284527
         -0.014098545302159676
         -0.014026017827034826
         -0.01395349035190998
         -0.013880962876785129
         -0.013808435401660279
         -0.013735907926535429
         -0.01366338045141058
         -0.013590852976285732
         -0.01351832550116088
         -0.013445798026036033
         -0.013373270550911184
         -0.013300743075786334
         -0.013228215600661486
         -0.013155688125536635
         -0.013083160650411785
         -0.013010633175286935
         -0.012938105700162088
         -0.01286557822503724
         -0.012793050749912388
         -0.01272052327478754
         -0.01264799579966269
         -0.01257546832453784
         -0.01250294084941299
         -0.01243041337428814
         -0.012357885899163293
         -0.012285358424038443
         -0.012212830948913594
         -0.012140303473788746
         -0.012067775998663897
         -0.011995248523539045
         -0.011922721048414195
         -0.011850193573289348
         -0.011777666098164498
         -0.01170513862303965
         -0.0116326111479148
         -0.011560083672789951
         -0.0114875561976651
         -0.01141502872254025
         -0.011342501247415404
         -0.011269973772290554
         -0.011197446297165703
         -0.011124918822040855
         -0.011052391346916006
         -0.010979863871791156
         -0.01090733639666631
         -0.010834808921541459
         -0.010762281446416609
         -0.010689753971291759
         -0.01061722649616691
         -0.01054469902104206
         -0.01047217154591721
         -0.010399644070792361
         -0.010327116595667514
         -0.010254589120542664
         -0.010182061645417812
         -0.010109534170292965
         -0.010037006695168115
         -0.009964479220043265
         -0.009891951744918416
         -0.009819424269793568
         -0.00974689679466872
         -0.00967436931954387
         -0.009601841844419019
         -0.009529314369294169
         -0.00945678689416932
         -0.00938425941904447
         -0.009311731943919625
         -0.009239204468794775
         -0.009166676993669923
         -0.009094149518545072
         -0.009021622043420226
         -0.008949094568295375
         -0.008876567093170527
         -0.008804039618045678
         -0.008731512142920828
         -0.00865898466779598
         -0.00858645719267113
         -0.008513929717546283
         -0.008441402242421429
         -0.00836887476729658
         -0.00829634729217173
         -0.008223819817046885
         -0.008151292341922033
         -0.008078764866797183
         -0.008006237391672336
         -0.007933709916547486
         -0.007861182441422634
         -0.007788654966297789
         -0.007716127491172938
         -0.007643600016048088
         -0.00757107254092324
         -0.00749854506579839
         -0.007426017590673542
         -0.007353490115548691
         -0.007280962640423841
         -0.007208435165298995
         -0.007135907690174145
         -0.007063380215049297
         -0.006990852739924443
         -0.006918325264799592
         -0.0068457977896747456
         -0.006773270314549895
         -0.006700742839425048
         -0.0066282153643001974
         -0.006555687889175346
         -0.0064831604140505004
         -0.006410632938925649
         -0.006338105463800803
         -0.006265577988675952
         -0.006193050513551105
         -0.006120523038426255
         -0.006047995563301404
         -0.005975468088176557
         -0.005902940613051703
         -0.005830413137926853
         -0.005757885662802006
         -0.005685358187677156
         -0.005612830712552308
         -0.005540303237427457
         -0.0054677757623026076
         -0.00539524828717776
         -0.00532272081205291
         -0.005250193336928063
         -0.005177665861803212
         -0.005105138386678366
         -0.005032610911553515
         -0.004960083436428665
         -0.004887555961303817
         -0.004815028486178967
         -0.00474250101105412
         -0.004669973535929266
         -0.004597446060804415
         -0.0045249185856795675
         -0.004452391110554718
         -0.0043798636354298705
         -0.00430733616030502
         -0.004234808685180169
         -0.004162281210055322
         -0.004089753734930472
         -0.004017226259805625
         -0.003944698784680775
         -0.0038721713095559245
         -0.0037996438344310777
         -0.003727116359306227
         -0.0036545888841813794
         -0.0035820614090565257
         -0.0035095339339316755
         -0.0034370064588068283
         -0.0033644789836819776
         -0.003291951508557131
         -0.00321942403343228
         -0.00314689655830743
         -0.0030743690831825828
         -0.0030018416080577325
         -0.0029293141329328853
         -0.002856786657808035
         -0.0027842591826831844
         -0.0027117317075583372
         -0.002639204232433487
         -0.00256667675730864
         -0.0024941492821837895
         -0.0024216218070589423
         -0.002349094331934088
         -0.002276566856809238
         -0.0022040393816843908
         -0.0021315119065595405
         -0.00205898443143469
         -0.001986456956309843
         -0.0019139294811849924
         -0.0018414020060601455
         -0.0017688745309352948
         -0.001696347055810448
         -0.0016238195806855973
         -0.0015512921055607471
         -0.0014787646304359
         -0.0014062371553110495
         -0.0013337096801862025
         -0.0012611822050613483
         -0.001188654729936498
         -0.001116127254811651
         -0.0010435997796868005
         -0.0009710723045619535
         -0.0008985448294371031
         -0.0008260173543122525
         -0.0007534898791874055
         -0.000680962404062555
         -0.000608434928937708
         -0.0005359074538128576
         -0.0004633799786880071
         -0.00039085250356316005
         -0.0003183250284383096
         -0.0002457975533134626
         -0.0001732700781886121
         -0.00010074260306376159
         -2.821512793891108e-05
         4.433318248455868e-05
         0.00011698351575460898
         0.00018974418436069098
         0.0002626153558709811
         0.00033559719810815453
         0.0004086898791498527
         0.00048189356732884244
         0.000555208431233651
         0.0006286346397088217
         0.0007021723618552854
         0.0007758217670307917
         0.0008495830248503248
         0.0009234563051864732
         0.0009974417781697916
         0.0010715396141892778
         0.0011457499838925405
         0.0012200730581865128
         0.0012945090082376917
         0.0013690580054723498
         0.0014437202215773018
         0.0015184958285000205
         0.0015933849984491304
         0.0016683879038948397
         0.0017435047175691526
         0.0018187356124665405
         0.0018940807618441598
         0.0019695403392223153
         0.0020451145183847997
         0.0021208034733793293
         0.0021966073785179923
         0.0022725264083776186
         0.002348560737800092
         0.00242471054189293
         0.002500975996029493
         0.002577357275849583
         0.0026538545572596557
         0.0027304680164333653
         0.0028071978298119665
         0.00288404417410459
         0.0029610072262887693
         0.003038087163610843
         0.0031152841635863184
         0.0031925984040003636
         0.003270030062907987
         0.0033475793186347564
         0.0034252463497770266
         0.0035030313352024233
         0.003580934454050146
         0.003658955885731487
         0.0037370958099302363
         0.0038153544066030815
         0.0038937318559799576
         0.003972228338564588
         0.004050844035134747
         0.004129579126742868
         0.004208433794716217
         0.004287408220657562
         0.004366502586445449
         0.004445717074234608
         0.004525051866456388
         0.004604507145819288
         0.004684083095309238
         0.004763779898190122
         0.0048435977380040076
         0.004923536798571857
         0.005003597263993782
         0.005083779318649448
         0.005164083147198524
         0.00524450893458118
         0.005325056866018456
         0.0054057271270127
         0.005486519903347861
         0.0055674353810902045
         0.005648473746588485
         0.005729635186474532
         0.005810919887663532
         0.0058923280373546355
         0.005973859823031189
         0.006055515432461401
         0.006137295053698517
         0.006219198875081498
         0.006301227085235227
         0.006383379873071176
         0.006465657427787599
         0.006548059938870173
         0.006630587596092347
         0.006713240589515744
         0.0067960191094906105
         0.00687892334665637
         0.006961953491941901
         0.0070451097365661465
         0.007128392272038271
         0.0072118012901584636
         0.007295336983018121
         0.007378999543000415
         0.007462789162780716
         0.007546706035326853
         0.007630750353899905
         0.007714922312054379
         0.007799222103638769
         0.007883649922795938
         0.007968205963963563
         0.008052890421874697
         0.00813770349155813
         0.008222645368338756
         0.00830771624783824
         0.008392916325975216
         0.008478245798965965
         0.008563704863324683
         0.008649293715864067
         0.008735012553695777
         0.008820861574230636
         0.008906840975179457
         0.008992950954553257
         0.009079191710663848
         0.009165563442124042
         0.00925206634784845
         0.009338700627053727
         0.00942546647925909
         0.009512364104286823
         0.0095993937022625
         0.009686555473615818
         0.009773849619080803
         0.009861276339696362
         0.009948835836806691
         0.010036528312061737
         0.010124353967417784
         0.010212313005137806
         0.010300405627791913
         0.010388632038257867
         0.010476992439721586
         0.010565487035677586
         0.010654116029929337
         0.010742879626589938
         0.010831778030082386
         0.010920811445140228
         0.011009980076807849
         0.011099284130441114
         0.011188723811707756
         0.01127829932658783
         0.011368010881374188
         0.011457858682673062
         0.011547842937404405
         0.011637963852802522
         0.01172822163641622
         0.011818616496109739
         0.01190914864006292
         0.011999818276771807
         0.012090625615049023
         0.01218157086402435
         0.01227265423314519
         0.012363875932177075
         0.012455236171204006
         0.01254673516062916
         0.012638373111175145
         0.012730150233884721
         0.012822066740121018
         0.012914122841568293
         0.013006318750232261
         0.013098654678440567
         0.013191130838843322
         0.013283747444413642
         0.013376504708448075
         0.013469402844567173
         0.013562442066715696
         0.013655622589163549
         0.013748944626505971
         0.01384240839366418
         0.013936014105885604
         0.014029761978744774
         0.014123652228143534
         0.014217685070311648
         0.014311860721807308
         0.014406179399517416
         0.014500641320658463
         0.014595246702776801
         0.014689995763749061
         0.014784888721782897
         0.014879925795417257
         0.014975107203523082
         0.0150704331653036
         0.015165903900295057
         0.015261519628367087
         0.015357280569723207
         0.015453186944901342
         0.015549238974774424
         0.015645436880550787
         0.015741780883774793
         0.015838271206327078
         0.01593490807042543
         0.016031691698625075
         0.016128622313819216
         0.016225700139239647
         0.016322925398457006
         0.016420298315381644
         0.016517819114263907
         0.016615488019694764
         0.01671330525660618
         0.016811271050271765
         0.016909385626307283
         0.0170076492106712
         0.017106062029664956
         0.01720462430993386
         0.01730333627846738
         0.017402198162599733
         0.017501210190010358
         0.017600372588724423
         0.017699685587113514
         0.017799149413896043
         0.017898764298137648
         0.01799853046925204
         0.01809844815700118
         0.018198517591496027
         0.01829873900319706
         0.018399112622914725
         0.01849963868181001
         0.018600317411395038
         0.018701149043533313
         0.018802133810440717
         0.018903271944685694
         0.01900456367918996
         0.01910600924722888
         0.019207608882432104
         0.01930936281878418
         0.019411271290625
         0.01951333453265026
         0.01961555277991222
         0.019717926267819996
         0.01982045523214033
         0.019923139908997908
         0.02002598053487615
         0.020128977346617588
         0.020232130581424392
         0.020335440476859003
         0.020438907270844728
         0.02054253120166606
         0.02064631250796957
         0.02075025142876407
         0.0208543482034215
         0.020958603071677333
         0.02106301627363103
         0.021167588049746753
         0.02127231864085388
         0.021377208288147532
         0.021482257233189188
         0.02158746571790702
         0.02169283398459678
         0.02179836227592216
         0.021904050834915423
         0.02200989990497784
         0.02211590972988036
         0.022222080553764224
         0.022328412621141443
         0.02243490617689525
         0.022541561466280977
         0.022648378734926228
         0.022755358228831832
         0.022862500194372075
         0.02296980487829551
         0.023077272527725422
         0.023184903390160373
         0.023292697713474766
         0.023400655745919548
         0.023508777736122692
         0.02361706393308967
         0.023725514586204144
         0.023834129945228603
         0.023942910260304782
         0.024051855781954408
         0.024160966761079473
         0.024270243448963218
         0.02437968609727043
         0.02448929495804811
         0.024599070283726147
         0.024709012327117558
         0.02481912134141952
         0.02492939758021373
         0.025039841297466874
         0.025150452747531523
         0.025261232185146355
         0.025372179865437078
         0.025483296043916734
         0.025594580976486505
         0.025706034919436224
         0.025817658129444896
         0.025929450863581338
         0.026041413379304844
         0.026153545934465696
         0.02626584878730584
         0.026378322196459202
         0.02649096642095273
         0.02660378172020667
         0.026716768354035265
         0.02682992658264742
         0.026943256666646983
         0.027056758867033834
         0.02717043344520415
         0.027284280662951167
         0.02739830078246548
         0.027512494066336126
         0.027626860777550843
         0.02774140117949682
         0.027856115535961186
         0.027971004111131677
         0.028086067169597353
         0.028201304976349074
         0.0283167177967801
         0.028432305896686726
         0.02854806954226903
         0.02866400900013133
         0.028780124537282743
         0.028896416421138067
         0.029012884919518048
         0.02912953030065034
         0.0292463528331698
         0.02936335278611941
         0.02948053042895074
         0.0295978860315244
         0.029715419864111046
         0.02983313219739171
         0.029951023302458534
         0.030069093450815463
         0.030187342914378513
         0.030305771965476905
         0.030424380876853393
         0.030543169921664975
         0.03066213937348342
         0.03078128950629597
         0.030900620594506066
         0.03102013291293393
         0.031139826736816905
         0.031259702341810594
         0.031379760003989156
         0.03149999999984608
         0.031620422606294635
         0.03174102810066883
         0.03186181676072366
         0.031982788864636146
         0.03210394469100563
         0.03222528451885465
         0.032346808627629536
         0.03246851729720092
         0.03259041080786448
         0.03271248944034168
         0.03283475347578023
         0.032957203195754986
         0.03307983888226812
         0.03320266081775038
         0.03332566928506132
         0.033448864567490154
         0.033572246948756254
         0.03369581671300985
         0.0338195741448328
         0.03394351952923921
         0.034067653151675856
         0.03419197529802323
         0.03431648625459581
         0.034441186308143114
         0.03456607574584992
         0.03469115485533738
         0.03481642392466324
         0.03494188324232296
         0.03506753309724992
         0.0351933737788165
         0.035319405576834384
         0.03544562878155556
         0.03557204368367265
         0.03569865057431992
         0.035825449745073755
         0.035952441487953284
         0.036079626095421126
         0.03620700386038417
         0.03633457507619406
         0.03646234003664812
         0.036590299035989544
         0.03671845236890869
         0.03684680033054338
         0.03697534321647964
         0.037104081322752516
         0.03723301494584641
         0.037362144382696215
         0.03749146993068776
         0.0376209918876584
         0.03775071055189794
         0.03788062622214921
         0.03801073919760863
         0.038141049777927066
         0.038271558263210506
         0.038402264954020715
         0.03853317015137599
         0.03866427415675149
         0.0387955772720806
         0.03892707979975509
         0.03905878204262596
         0.039190684304004145
         0.0393227868876613
         0.03945509009783039
         0.0395875942392065
         0.0397202996169472
         0.03985320653667379
         0.03998631530447161
         0.040119626226890893
         0.04025313961094746
         0.040386855764123195
         0.04052077499436721
         0.04065489761009619
         0.04078922392019533
         0.04092375423401875
         0.04105848886139048
         0.04119342811260509
         0.04132857229842849
         0.04146392173009838
         0.04159947671932527
         0.041735237578292984
         0.041871204619659576
         0.042007378156557806
         0.042143758502596086
         0.042280345971859166
         0.04241714087890858
         0.04255414353878379
         0.04269135426700267
         0.042828773379562264
         0.04296640119293962
         0.04310423802409216
         0.04324228419045891
         0.043380540009960965
         0.0435190058010023
         0.043657681882470184
