app/render/ocioconf/luts/S-Log3_to_linear.spi1d
Version 1
From 0.000000 1.000000
Length 4096
Components 1
{
         -0.014023695936443719
         -0.0139868185096897
         -0.013949941082935681
         -0.013913063656181666
         -0.013876186229427647
         -0.013839308802673629
         -0.01380243137591961
         -0.013765553949165591
         -0.013728676522411576
         -0.013691799095657558
         -0.013654921668903535
         -0.013618044242149518
         -0.0135811668153955
         -0.013544289388641481
         -0.013507411961887466
         -0.013470534535133447
         -0.013433657108379429
         -0.01339677968162541
         -0.013359902254871391
         -0.013323024828117376
         -0.013286147401363357
         -0.013249269974609335
         -0.013212392547855318
         -0.0131755151211013
         -0.013138637694347281
         -0.013101760267593266
         -0.013064882840839247
         -0.013028005414085228
         -0.01299112798733121
         -0.012954250560577191
         -0.012917373133823174
         -0.012880495707069155
         -0.012843618280315137
         -0.012806740853561118
         -0.012769863426807101
         -0.012732986000053082
         -0.012696108573299066
         -0.012659231146545047
         -0.012622353719791028
         -0.01258547629303701
         -0.012548598866282993
         -0.012511721439528974
         -0.012474844012774955
         -0.012437966586020937
         -0.012401089159266918
         -0.012364211732512901
         -0.012327334305758882
         -0.012290456879004865
         -0.012253579452250847
         -0.012216702025496828
         -0.01217982459874281
         -0.012142947171988792
         -0.012106069745234774
         -0.012069192318480755
         -0.012032314891726736
         -0.011995437464972718
         -0.0119585600382187
         -0.011921682611464682
         -0.011884805184710665
         -0.011847927757956647
         -0.011811050331202628
         -0.011774172904448611
         -0.011737295477694592
         -0.011700418050940574
         -0.011663540624186555
         -0.011626663197432536
         -0.011589785770678518
         -0.0115529083439245
         -0.011516030917170482
         -0.011479153490416465
         -0.011442276063662446
         -0.011405398636908428
         -0.01136852121015441
         -0.011331643783400392
         -0.011294766356646373
         -0.011257888929892355
         -0.011221011503138336
         -0.011184134076384317
         -0.0111472566496303
         -0.011110379222876282
         -0.011073501796122265
         -0.011036624369368246
         -0.01099974694261423
         -0.01096286951586021
         -0.010925992089106192
         -0.010889114662352173
         -0.010852237235598155
         -0.010815359808844136
         -0.010778482382090117
         -0.0107416049553361
         -0.010704727528582082
         -0.010667850101828065
         -0.010630972675074046
         -0.010594095248320029
         -0.01055721782156601
         -0.010520340394811992
         -0.010483462968057973
         -0.010446585541303954
         -0.010409708114549936
         -0.010372830687795917
         -0.0103359532610419
         -0.010299075834287881
         -0.010262198407533864
         -0.010225320980779846
         -0.010188443554025829
         -0.01015156612727181
         -0.010114688700517791
         -0.010077811273763773
         -0.010040933847009754
         -0.010004056420255735
         -0.009967178993501717
         -0.0099303015667477
         -0.009893424139993681
         -0.009856546713239664
         -0.009819669286485647
         -0.009782791859731629
         -0.00974591443297761
         -0.009709037006223591
         -0.009672159579469573
         -0.009635282152715554
         -0.009598404725961535
         -0.009561527299207518
         -0.0095246498724535
         -0.009487772445699481
         -0.009450895018945464
         -0.009414017592191447
         -0.009377140165437428
         -0.00934026273868341
         -0.009303385311929391
         -0.009266507885175374
         -0.009229630458421356
         -0.009192753031667337
         -0.009155875604913318
         -0.0091189981781593
         -0.00908212075140528
         -0.009045243324651264
         -0.009008365897897247
         -0.008971488471143228
         -0.00893461104438921
         -0.008897733617635193
         -0.008860856190881172
         -0.008823978764127155
         -0.008787101337373137
         -0.008750223910619118
         -0.0087133464838651
         -0.008676469057111082
         -0.008639591630357064
         -0.008602714203603047
         -0.008565836776849028
         -0.00852895935009501
         -0.00849208192334099
         -0.008455204496586974
         -0.008418327069832955
         -0.008381449643078938
         -0.008344572216324918
         -0.0083076947895709
         -0.00827081736281688
         -0.008233939936062864
         -0.008197062509308847
         -0.008160185082554828
         -0.00812330765580081
         -0.008086430229046792
         -0.008049552802292774
         -0.008012675375538757
         -0.007975797948784738
         -0.007938920522030718
         -0.007902043095276699
         -0.007865165668522682
         -0.007828288241768663
         -0.007791410815014647
         -0.007754533388260627
         -0.00771765596150661
         -0.00768077853475259
         -0.0076439011079985734
         -0.007607023681244555
         -0.007570146254490538
         -0.007533268827736517
         -0.0074963914009825005
         -0.007459513974228483
         -0.007422636547474465
         -0.007385759120720447
         -0.007348881693966427
         -0.007312004267212409
         -0.007275126840458391
         -0.007238249413704373
         -0.007201371986950356
         -0.007164494560196338
         -0.007127617133442319
         -0.0070907397066882994
         -0.0070538622799342825
         -0.007016984853180264
         -0.006980107426426247
         -0.006943229999672228
         -0.0069063525729182096
         -0.006869475146164191
         -0.006832597719410174
         -0.006795720292656156
         -0.0067588428659021375
         -0.006721965439148117
         -0.0066850880123941
         -0.006648210585640082
         -0.0066113331588860645
         -0.006574455732132047
         -0.006537578305378028
         -0.0065007008786240085
         -0.006463823451869991
         -0.006426946025115973
         -0.006390068598361955
         -0.006353191171607936
         -0.006316313744853919
         -0.0062794363180999
         -0.006242558891345883
         -0.006205681464591864
         -0.006168804037837846
         -0.006131926611083827
         -0.006095049184329809
         -0.0060581717575757905
         -0.006021294330821774
         -0.005984416904067755
         -0.005947539477313738
         -0.0059106620505597176
         -0.0058737846238057
         -0.005836907197051682
         -0.005800029770297664
         -0.0057631523435436455
         -0.0057262749167896285
         -0.005689397490035609
         -0.005652520063281592
         -0.005615642636527573
         -0.005578765209773555
         -0.005541887783019536
         -0.005505010356265518
         -0.0054681329295115
         -0.005431255502757483
         -0.005394378076003464
         -0.005357500649249447
         -0.005320623222495427
         -0.005283745795741409
         -0.00524686836898739
         -0.005209990942233372
         -0.0051731135154793545
         -0.005136236088725338
         -0.005099358661971318
         -0.005062481235217301
         -0.0050256038084632824
         -0.004988726381709264
         -0.004951848954955245
         -0.004914971528201228
         -0.004878094101447209
         -0.004841216674693192
         -0.004804339247939173
         -0.004767461821185155
         -0.004730584394431136
         -0.004693706967677118
         -0.004656829540923099
         -0.004619952114169082
         -0.004583074687415064
         -0.004546197260661045
         -0.004509319833907029
         -0.00447244240715301
         -0.0044355649803989915
         -0.004398687553644973
         -0.004361810126890956
         -0.004324932700136937
         -0.004288055273382919
         -0.004251177846628898
         -0.004214300419874882
         -0.004177422993120863
         -0.004140545566366845
         -0.004103668139612826
         -0.00406679071285881
         -0.004029913286104791
         -0.003993035859350773
         -0.003956158432596754
         -0.003919281005842737
         -0.003882403579088719
         -0.0038455261523347006
         -0.003808648725580682
         -0.003771771298826665
         -0.0037348938720726467
         -0.003698016445318626
         -0.0036611390185646076
         -0.003624261591810591
         -0.003587384165056573
         -0.0035505067383025534
         -0.003513629311548535
         -0.0034767518847945186
         -0.0034398744580405004
         -0.0034029970312864817
         -0.0033661196045324635
         -0.0033292421777784465
         -0.003292364751024428
         -0.0032554873242704096
         -0.003218609897516391
         -0.0031817324707623744
         -0.0031448550440083558
         -0.003107977617254337
         -0.0030711001905003163
         -0.0030342227637463
         -0.0029973453369922815
         -0.002960467910238263
         -0.0029235904834842446
         -0.0028867130567302277
         -0.0028498356299762094
         -0.0028129582032221908
         -0.002776080776468172
         -0.0027392033497141556
         -0.002702325922960137
         -0.0026654484962061182
         -0.0026285710694521
         -0.0025916936426980835
         -0.002554816215944065
         -0.002517938789190044
         -0.0024810613624360253
         -0.0024441839356820092
         -0.0024073065089279906
         -0.002370429082173972
         -0.0023335516554199532
         -0.0022966742286659367
         -0.002259796801911918
         -0.0022229193751579
         -0.002186041948403881
         -0.0021491645216498646
         -0.0021122870948958464
         -0.0020754096681418273
         -0.002038532241387809
         -0.002001654814633792
         -0.001964777387879774
         -0.0019278999611257554
         -0.0018910225343717346
         -0.001854145107617718
         -0.0018172676808636996
         -0.0017803902541096807
         -0.0017435128273556623
         -0.001706635400601646
         -0.0016697579738476271
         -0.0016328805470936087
         -0.00159600312033959
         -0.0015591256935855737
         -0.0015222482668315552
         -0.0014853708400775366
         -0.001448493413323518
         -0.0014116159865695014
         -0.001374738559815483
         -0.001337861133061462
         -0.0013009837063074437
         -0.0012641062795534271
         -0.0012272288527994085
         -0.0011903514260453898
         -0.0011534739992913714
         -0.001116596572537355
         -0.0010797191457833364
         -0.0010428417190293177
         -0.0010059642922752993
         -0.0009690868655212828
         -0.0009322094387672641
         -0.0008953320120132454
         -0.000858454585259227
         -0.0008215771585052106
         -0.0007846997317511919
         -0.0007478223049971733
         -0.0007109448782431527
         -0.0006740674514891361
         -0.0006371900247351175
         -0.000600312597981099
         -0.0005634351712270804
         -0.0005265577444730639
         -0.0004896803177190453
         -0.0004528028909650268
         -0.00041592546421100816
         -0.0003790480374569917
         -0.00034217061070297315
         -0.00030529318394895453
         -0.00026841575719493597
         -0.0002315383304409195
         -0.00019466090368690093
         -0.00015778347693288025
         -0.00012090605017886167
         -8.402862342484518e-05
         -4.71511966708266e-05
         -1.0273769916808025e-05
         2.6603656837210554e-05
         6.348108359122704e-05
         0.00010035851034524561
         0.00013723593709926422
         0.00017411336385328278
         0.00021099079060729926
         0.00024786821736131785
         0.0002847456441153364
         0.000321623070869355
         0.0003585004976233715
         0.00039537792437739004
         0.0004322553511314086
         0.00046913277788542934
         0.0005060102046394458
         0.0005428876313934643
         0.0005797650581474829
         0.0006166424849015016
         0.000653519911655518
         0.0006903973384095365
         0.0007272747651635552
         0.0007641521919175738
         0.0008010296186715902
         0.0008379070454256088
         0.0008747844721796273
         0.000911661898933646
         0.0009485393256876625
         0.000985416752441681
         0.0010222941791957017
         0.0010591716059497201
         0.0010960490327037368
         0.0011329264594577553
         0.001169803886211774
         0.0012066813129657924
         0.0012435587397198091
         0.0012804361664738276
         0.0013173135932278463
         0.0013541910199818647
         0.0013910684467358812
         0.0014279458734898997
         0.0014648233002439183
         0.0015017007269979368
         0.0015385781537519535
         0.001575455580505972
         0.0016123330072599907
         0.0016492104340140113
         0.001686087860768028
         0.0017229652875220464
         0.001759842714276065
         0.0017967201410300834
         0.0018335975677840999
         0.0018704749945381183
         0.0019073524212921372
         0.0019442298480461557
         0.0019811072748001724
         0.0020179847015541906
         0.0020548621283082093
         0.002091739555062228
         0.0021286169818162445
         0.0021654944085702627
         0.0022023718353242835
         0.002239249262078302
         0.0022761266888323187
         0.0023130041155863374
         0.002349881542340356
         0.0023867589690943743
         0.002423636395848391
         0.0024605138226024095
         0.0024973912493564277
         0.002534268676110447
         0.002571146102864463
         0.002608023529618482
         0.0026449009563725002
         0.002681778383126519
         0.0027186558098805354
         0.002755533236634554
         0.0027924106633885723
         0.002829288090142593
         0.0028661655168966097
         0.002903042943650628
         0.002939920370404647
         0.0029767977971586652
         0.003013675223912682
         0.0030505526506667004
         0.003087430077420719
         0.0031243075041747378
         0.0031611849309287543
         0.0031980623576827725
         0.003234939784436791
         0.00327181721119081
         0.003308694637944826
         0.0033455720646988446
         0.003382449491452866
         0.0034193269182068845
         0.0034562043449609006
         0.0034930817717149193
         0.0035299591984689375
         0.003566836625222956
         0.003603714051976973
         0.0036405914787309914
         0.00367746890548501
         0.0037143463322390283
         0.0037512237589930448
         0.003788101185747064
         0.0038249786125010826
         0.003861856039255101
         0.0038987334660091173
         0.003935610892763136
         0.003972488319517155
         0.004009365746271175
         0.004046243173025192
         0.00408312059977921
         0.0041199980265332285
         0.004156875453287247
         0.004193752880041264
         0.004230630306795283
         0.004267507733549301
         0.004304385160303319
         0.004341262587057336
         0.004378140013811354
         0.0044150174405653735
         0.004451894867319392
         0.004488772294073408
         0.004525649720827427
         0.004562527147581447
         0.004599404574335466
         0.004636282001089483
         0.004673159427843502
         0.004710036854597519
         0.004746914281351538
         0.004783791708105554
         0.004820669134859574
         0.004857546561613592
         0.00489442398836761
         0.004931301415121629
         0.0049681788418756475
         0.005005056268629663
         0.0050419336953836805
         0.005078811122137699
         0.005115688548891718
         0.0051525659756457365
         0.005189443402399754
         0.005226320829153774
         0.0052631982559077925
         0.005300075682661806
         0.005336953109415825
         0.005373830536169843
         0.005410707962923863
         0.005447585389677881
         0.005484462816431904
         0.005521340243185922
         0.005558217669939941
         0.0055950950966939545
         0.005631972523447974
         0.005668849950201993
         0.0057057273769560105
         0.005742604803710029
         0.005779482230464048
         0.0058163596572180665
         0.005853237083972085
         0.0058901145107260995
         0.005926991937480118
         0.005963869364234137
         0.006000746790988155
         0.006037624217742174
         0.006074501644496193
         0.006111379071250212
         0.006148256498004229
         0.006185133924758244
         0.006222011351512263
         0.006258888778266281
         0.0062957662050203
         0.006332643631774318
         0.006369521058528337
         0.006406398485282355
         0.006443275912036374
         0.006480153338790389
         0.0065170307655444066
         0.006553908192298425
         0.006590785619052445
         0.006627663045806468
         0.006664540472560486
         0.006701417899314504
         0.006738295326068523
         0.006775172752822537
         0.006812050179576555
         0.006848927606330574
         0.006885805033084592
         0.006922682459838611
         0.006959559886592631
         0.006996437313346649
         0.007033314740100668
         0.007070192166854681
         0.0071070695936087
         0.007143947020362719
         0.0071808244471167374
         0.007217701873870755
         0.007254579300624774
         0.007291456727378793
         0.007328334154132811
         0.0073652115808868265
         0.007402089007640845
         0.007438966434394864
         0.007475843861148882
         0.0075127212879029
         0.007549598714656919
         0.007586476141410938
         0.0076233535681649554
         0.00766023099491897
         0.0076971084216729884
         0.007733985848427008
         0.007770863275181027
         0.007807740701935045
         0.007844618128689067
         0.007881495555443086
         0.007918372982197105
         0.007955250408951118
         0.007992127835705137
         0.008029005262459156
         0.008065882689213174
         0.008102760115967193
         0.008139637542721212
         0.00817651496947523
         0.008213392396229249
         0.008250269822983264
         0.008287147249737283
         0.008324024676491302
         0.008360902103245318
         0.008397779529999337
         0.008434656956753356
         0.008471534383507374
         0.008508411810261393
         0.008545289237015408
         0.008582166663769427
         0.008619044090523446
         0.008655921517277464
         0.008692798944031483
         0.008729676370785502
         0.008766553797539519
         0.008803431224293537
         0.008840308651047553
         0.008877186077801571
         0.008914063504555588
         0.008950940931309607
         0.00898781835806363
         0.00902469578481765
         0.009061573211571668
         0.009098450638325687
         0.009135328065079702
         0.009172205491833719
         0.009209082918587738
         0.009245960345341756
         0.009282837772095775
         0.009319715198849794
         0.009356592625603812
         0.00939347005235783
         0.009430347479111846
         0.009467224905865865
         0.009504102332619883
         0.009540979759373902
         0.009577857186127919
         0.009614734612881938
         0.009651612039635956
         0.009688489466389975
         0.009725366893143989
         0.009762244319898007
         0.009799121746652028
         0.009835999173406046
         0.009872876600160065
         0.009909754026914084
         0.009946631453668102
         0.00998350888042212
         0.010020386307176134
         0.010057263733930153
         0.010094141160684172
         0.010131018587438189
         0.010167896014192207
         0.010204773440946231
         0.01024165086770025
         0.010278528294454269
         0.010315405721208284
         0.010352283147962302
         0.01038916057471632
         0.010426038001470338
         0.010462915428224357
         0.010499792854978375
         0.010536670281732394
         0.010573547708486413
         0.010610425135240428
         0.010647302561994447
         0.010684179988748465
         0.010721057415502484
         0.010757934842256503
         0.01079481226901052
         0.010831689695764538
         0.010868567122518557
         0.010905444549272572
         0.010942321976026589
         0.010979199402780608
         0.011016076829534628
         0.011052954256288647
         0.011089831683042665
         0.011126709109796684
         0.011163586536550703
         0.011200463963304716
         0.011237341390058735
         0.011280720671685234
         0.01132758364105003
         0.011374549808888778
         0.011421619402458187
         0.011468792649515435
         0.011516069778319262
         0.011563451017631036
         0.01161093659671592
         0.01165852674534392
         0.011706221693791046
         0.0117540216728404
         0.011801926913783291
         0.011849937648420376
         0.011898054109062762
         0.011946276528533117
         0.011994605140166864
         0.012043040177813215
         0.01209158187583636
         0.0121402304691166
         0.012188986193051475
         0.012237849283556887
         0.012286819977068262
         0.012335898510541692
         0.012385085121455088
         0.012434380047809288
         0.01248378352812928
         0.012533295801465278
         0.012582917107393938
         0.012632647686019483
         0.012682487777974897
         0.012732437624423042
         0.012782497467057877
         0.0128326675481056
         0.012882948110325807
         0.01293333939701269
         0.012983841651996232
         0.013034455119643311
         0.013085180044858974
         0.013136016673087567
         0.01318696525031395
         0.013238026023064656
         0.013289199238409101
         0.01334048514396081
         0.013391883987878552
         0.013443396018867583
         0.01349502148618086
         0.013546760639620204
         0.01359861372953755
         0.013650581006836122
         0.013702662722971692
         0.013754859129953756
         0.01380717048034675
         0.013859597027271334
         0.013912139024405539
         0.013964796725986025
         0.014017570386809357
         0.014070460262233154
         0.014123466608177372
         0.01417658968112555
         0.014229829738126034
         0.014283187036793222
         0.01433666183530881
         0.014390254392423049
         0.014443964967455999
         0.014497793820298756
         0.014551741211414762
         0.014605807401841012
         0.014659992653189327
         0.014714297227647664
         0.014768721387981335
         0.014823265397534287
         0.014877929520230404
         0.014932714020574766
         0.014987619163654915
         0.01504264521514215
         0.015097792441292822
         0.015153061108949614
         0.015208451485542824
         0.015263963839091671
         0.01531959843820561
         0.015375355552085563
         0.015431235450525297
         0.015487238403912714
         0.015543364683231116
         0.015599614560060556
         0.01565598830657916
         0.015712486195564403
         0.015769108500394466
         0.015825855495049536
         0.015882727454113142
         0.015939724652773497
         0.015996847366824794
         0.01605409587266858
         0.016111470447315056
         0.01616897136838444
         0.016226598914108332
