app/render/ocioconf/luts/V-Log_to_linear.spi1d
Version 1
From 0.000000 1.000000
Length 4096
Components 1
{
         -0.0223214291036
         -0.0222778208554
         -0.0222342144698
         -0.0221906062216
         -0.022146999836
         -0.0221033934504
         -0.0220597852021
         -0.0220161788166
         -0.0219725705683
         -0.0219289641827
         -0.0218853559345
         -0.0218417495489
         -0.0217981431633
         -0.0217545349151
         -0.0217109285295
         -0.0216673202813
         -0.0216237138957
         -0.0215801056474
         -0.0215364992619
         -0.0214928928763
         -0.021449284628
         -0.0214056782424
         -0.0213620699942
         -0.0213184636086
         -0.0212748553604
         -0.0212312489748
         -0.0211876425892
         -0.021144034341
         -0.0211004279554
         -0.0210568197072
         -0.0210132133216
         -0.0209696050733
         -0.0209259986877
         -0.0208823923022
         -0.0208387840539
         -0.0207951776683
         -0.0207515694201
         -0.0207079630345
         -0.0206643547863
         -0.0206207484007
         -0.0205771420151
         -0.0205335337669
         -0.0204899273813
         -0.020446319133
         -0.0204027127475
         -0.0203591044992
         -0.0203154981136
         -0.020271891728
         -0.0202282834798
         -0.0201846770942
         -0.020141068846
         -0.0200974624604
         -0.0200538542122
         -0.0200102478266
         -0.0199666395783
         -0.0199230331928
         -0.0198794268072
         -0.0198358185589
         -0.0197922121733
         -0.0197486039251
         -0.0197049975395
         -0.0196613892913
         -0.0196177829057
         -0.0195741765201
         -0.0195305682719
         -0.0194869618863
         -0.0194433536381
         -0.0193997472525
         -0.0193561390042
         -0.0193125326186
         -0.0192689262331
         -0.0192253179848
         -0.0191817115992
         -0.019138103351
         -0.0190944969654
         -0.0190508887172
         -0.0190072823316
         -0.018963675946
         -0.0189200676978
         -0.0188764613122
         -0.0188328530639
         -0.0187892466784
         -0.0187456384301
         -0.0187020320445
         -0.0186584256589
         -0.0186148174107
         -0.0185712110251
         -0.0185276027769
         -0.0184839963913
         -0.0184403881431
         -0.0183967817575
         -0.0183531753719
         -0.0183095671237
         -0.0182659607381
         -0.0182223524898
         -0.0181787461042
         -0.018135137856
         -0.0180915314704
         -0.0180479250848
         -0.0180043168366
         -0.017960710451
         -0.0179171022028
         -0.0178734958172
         -0.017829887569
         -0.0177862811834
         -0.0177426747978
         -0.0176990665495
         -0.017655460164
         -0.0176118519157
         -0.0175682455301
         -0.0175246372819
         -0.0174810308963
         -0.0174374245107
         -0.0173938162625
         -0.0173502098769
         -0.0173066016287
         -0.0172629952431
         -0.0172193869948
         -0.0171757806093
         -0.0171321742237
         -0.0170885659754
         -0.0170449595898
         -0.0170013513416
         -0.016957744956
         -0.0169141367078
         -0.0168705303222
         -0.0168269239366
         -0.0167833156884
         -0.0167397093028
         -0.0166961010545
         -0.016652494669
         -0.0166088864207
         -0.0165652800351
         -0.0165216736495
         -0.0164780654013
         -0.0164344590157
         -0.0163908507675
         -0.0163472443819
         -0.0163036361337
         -0.0162600297481
         -0.0162164233625
         -0.0161728151143
         -0.0161292087287
         -0.0160856004804
         -0.0160419940948
         -0.0159983858466
         -0.015954779461
         -0.0159111730754
         -0.0158675648272
         -0.0158239584416
         -0.0157803501934
         -0.0157367438078
         -0.0156931355596
         -0.015649529174
         -0.0156059218571
         -0.0155623145401
         -0.0155187072232
         -0.0154750999063
         -0.0154314935207
         -0.0153878862038
         -0.0153442788869
         -0.01530067157
         -0.0152570642531
         -0.0152134569362
         -0.0151698496193
         -0.0151262432337
         -0.0150826359168
         -0.0150390285999
         -0.0149954212829
         -0.014951813966
         -0.0149082066491
         -0.0148645993322
         -0.0148209929466
         -0.0147773856297
         -0.0147337783128
         -0.0146901709959
         -0.014646563679
         -0.0146029563621
         -0.0145593490452
         -0.0145157426596
         -0.0144721353427
         -0.0144285280257
         -0.0143849207088
         -0.0143413133919
         -0.014297706075
         -0.0142540987581
         -0.0142104914412
         -0.0141668850556
         -0.0141232777387
         -0.0140796704218
         -0.0140360631049
         -0.013992455788
         -0.013948848471
         -0.0139052411541
         -0.0138616347685
         -0.0138180274516
         -0.0137744201347
         -0.0137308128178
         -0.0136872055009
         -0.013643598184
         -0.0135999908671
         -0.0135563844815
         -0.0135127771646
         -0.0134691698477
         -0.0134255625308
         -0.0133819552138
         -0.0133383478969
         -0.01329474058
         -0.0132511341944
         -0.0132075268775
         -0.0131639195606
         -0.0131203122437
         -0.0130767049268
         -0.0130330976099
         -0.012989490293
         -0.0129458839074
         -0.0129022765905
         -0.0128586692736
         -0.0128150619566
         -0.0127714546397
         -0.0127278473228
         -0.0126842400059
         -0.0126406336203
         -0.0125970263034
         -0.0125534189865
         -0.0125098116696
         -0.0124662043527
         -0.0124225970358
         -0.0123789897189
         -0.0123353833333
         -0.0122917760164
         -0.0122481686994
         -0.0122045613825
         -0.0121609540656
         -0.0121173467487
         -0.0120737394318
         -0.0120301321149
         -0.0119865257293
         -0.0119429184124
         -0.0118993110955
         -0.0118557037786
         -0.0118120964617
         -0.0117684891447
         -0.0117248818278
         -0.0116812754422
         -0.0116376681253
         -0.0115940608084
         -0.0115504534915
         -0.0115068461746
         -0.0114632388577
         -0.0114196315408
         -0.0113760251552
         -0.0113324178383
         -0.0112888105214
         -0.0112452032045
         -0.0112015958875
         -0.0111579885706
         -0.0111143812537
         -0.0110707748681
         -0.0110271675512
         -0.0109835602343
         -0.0109399529174
         -0.0108963456005
         -0.0108527382836
         -0.0108091309667
         -0.0107655245811
         -0.0107219172642
         -0.0106783099473
         -0.0106347026303
         -0.0105910953134
         -0.0105474879965
         -0.0105038806796
         -0.010460274294
         -0.0104166669771
         -0.0103730596602
         -0.0103294523433
         -0.0102858450264
         -0.0102422377095
         -0.0101986303926
         -0.010155024007
         -0.0101114166901
         -0.0100678093731
         -0.0100242020562
         -0.00998059473932
         -0.00993698742241
         -0.0098933801055
         -0.00984977278858
         -0.009806166403
         -0.00976255908608
         -0.00971895176917
         -0.00967534445226
         -0.00963173713535
         -0.00958812981844
         -0.00954452250153
         -0.00950091611594
         -0.00945730879903
         -0.00941370148212
         -0.00937009416521
         -0.00932648684829
         -0.00928287953138
         -0.00923927221447
         -0.00919566582888
         -0.00915205851197
         -0.00910845119506
         -0.00906484387815
         -0.00902123656124
         -0.00897762924433
         -0.00893402192742
         -0.00889041554183
         -0.00884680822492
         -0.00880320090801
         -0.00875959359109
         -0.00871598627418
         -0.00867237895727
         -0.00862877164036
         -0.00858516525477
         -0.00854155793786
         -0.00849795062095
         -0.00845434330404
         -0.00841073598713
         -0.00836712867022
         -0.0083235213533
         -0.00827991496772
         -0.0082363076508
         -0.00819270033389
         -0.00814909301698
         -0.00810548570007
         -0.00806187838316
         -0.00801827106625
         -0.00797466468066
         -0.00793105736375
         -0.00788745004684
         -0.00784384272993
         -0.00780023541301
         -0.0077566280961
         -0.00771302124485
         -0.00766941392794
         -0.00762580661103
         -0.00758219975978
         -0.00753859244287
         -0.00749498512596
         -0.00745137780905
         -0.0074077709578
         -0.00736416364089
         -0.00732055632398
         -0.00727694947273
         -0.00723334215581
         -0.0071897348389
         -0.00714612752199
         -0.00710252067074
         -0.00705891335383
         -0.00701530603692
         -0.00697169872001
         -0.00692809186876
         -0.00688448455185
         -0.00684087723494
         -0.00679727038369
         -0.00675366306677
         -0.00671005574986
         -0.00666644843295
         -0.0066228415817
         -0.00657923426479
         -0.00653562694788
         -0.00649202009663
         -0.00644841277972
         -0.00640480546281
         -0.0063611981459
         -0.00631759129465
         -0.00627398397774
         -0.00623037666082
         -0.00618676980957
         -0.00614316249266
         -0.00609955517575
         -0.00605594785884
         -0.00601234100759
         -0.00596873369068
         -0.00592512637377
         -0.00588151905686
         -0.00583791220561
         -0.0057943048887
         -0.00575069757178
         -0.00570709072053
         -0.00566348340362
         -0.00561987608671
         -0.0055762687698
         -0.00553266191855
         -0.00548905460164
         -0.00544544728473
         -0.00540184043348
         -0.00535823311657
         -0.00531462579966
         -0.00527101848274
         -0.00522741163149
         -0.00518380431458
         -0.00514019699767
         -0.00509659014642
         -0.00505298282951
         -0.0050093755126
         -0.00496576819569
         -0.00492216134444
         -0.00487855402753
         -0.00483494671062
         -0.00479133939371
         -0.00474773254246
         -0.00470412522554
         -0.00466051790863
         -0.00461691105738
         -0.00457330374047
         -0.00452969642356
         -0.00448608910665
         -0.0044424822554
         -0.00439887493849
         -0.00435526762158
         -0.00431166077033
         -0.00426805345342
         -0.0042244461365
         -0.00418083881959
         -0.00413723196834
         -0.00409362465143
         -0.00405001733452
         -0.00400641048327
         -0.00396280316636
         -0.00391919584945
         -0.00387558876537
         -0.00383198144846
         -0.00378837436438
         -0.00374476704746
         -0.00370115996338
         -0.0036575528793
         -0.00361394556239
         -0.00357033847831
         -0.0035267311614
         -0.00348312407732
         -0.00343951676041
         -0.00339590967633
         -0.00335230235942
         -0.00330869527534
         -0.00326508819126
         -0.00322148087434
         -0.00317787379026
         -0.00313426647335
         -0.00309065938927
         -0.00304705207236
         -0.00300344498828
         -0.00295983767137
         -0.00291623058729
         -0.00287262350321
         -0.0028290161863
         -0.00278540910222
         -0.00274180178531
         -0.00269819470122
         -0.00265458738431
         -0.00261098030023
         -0.00256737321615
         -0.00252376589924
         -0.00248015881516
         -0.00243655149825
         -0.00239294441417
         -0.00234933709726
         -0.00230573001318
         -0.00226212269627
         -0.00221851561219
         -0.0021749085281
         -0.00213130121119
         -0.00208769412711
         -0.0020440868102
         -0.00200047972612
         -0.00195687240921
         -0.00191326532513
         -0.00186965812463
         -0.00182605092414
         -0.00178244372364
         -0.00173883652315
         -0.00169522932265
         -0.00165162223857
         -0.00160801503807
         -0.00156440783758
         -0.00152080063708
         -0.00147719343659
         -0.00143358623609
         -0.00138997903559
         -0.0013463718351
         -0.00130276475102
         -0.00125915755052
         -0.00121555035003
         -0.00117194314953
         -0.00112833594903
         -0.00108472874854
         -0.00104112154804
         -0.000997514347546
         -0.000953907205258
         -0.000910300004762
         -0.000866692804266
         -0.000823085661978
         -0.000779478461482
         -0.000735871260986
         -0.00069226406049
         -0.000648656918202
         -0.000605049717706
         -0.00056144251721
         -0.000517835316714
         -0.000474228145322
         -0.00043062097393
         -0.000387013773434
         -0.000343406602042
         -0.000299799401546
         -0.000256192230154
         -0.000212585029658
         -0.000168977843714
         -0.00012537065777
         -8.1763471826e-05
         -3.815628952e-05
         5.450898243e-06
         4.9058086006e-05
         9.266527195e-05
         0.000136272457894
         0.000179879643838
         0.000223486829782
         0.000267094030278
         0.00031070120167
         0.000354308402166
         0.000397915573558
         0.000441522774054
         0.000485129945446
         0.000528737145942
         0.000572344346438
         0.000615951488726
         0.000659558689222
         0.000703165889718
         0.000746773090214
         0.000790380232502
         0.000833987432998
         0.000877594633494
         0.000921201833989
         0.000964808976278
         0.00100841617677
         0.00105202337727
         0.00109563057777
         0.00113923777826
         0.00118284497876
         0.00122645206284
         0.00127005926333
         0.00131366646383
         0.00135727366433
         0.00140088086482
         0.00144448806532
         0.00148809526581
         0.00153170246631
         0.0015753096668
         0.00161891675089
         0.00166252395138
         0.00170613115188
         0.00174973835237
         0.00179334555287
         0.00183695275337
         0.00188055995386
         0.00192416715436
         0.00196777423844
         0.00201138155535
         0.00205498863943
         0.00209859595634
         0.00214220304042
         0.0021858101245
         0.00222941744141
         0.00227302452549
         0.0023166318424
         0.00236023892649
         0.0024038462434
         0.00244745332748
         0.00249106041156
         0.00253466772847
         0.00257827481255
         0.00262188212946
         0.00266548921354
         0.00270909653045
         0.00275270361453
         0.00279631093144
         0.00283991801552
         0.00288352509961
         0.00292713241652
         0.0029707395006
         0.00301434681751
         0.00305795390159
         0.0031015612185
         0.00314516830258
         0.00318877561949
         0.00323238270357
         0.00327598978765
         0.00331959710456
         0.00336320418864
         0.00340681150556
         0.00345041858964
         0.00349402590655
         0.00353763299063
         0.00358124007471
         0.00362484739162
         0.0036684544757
         0.00371206179261
         0.00375566887669
         0.0037992761936
         0.00384288327768
         0.0038864905946
         0.00393009791151
         0.00397370476276
         0.00401731207967
         0.00406091939658
         0.00410452624783
         0.00414813356474
         0.00419174088165
         0.00423534819856
         0.00427895504981
         0.00432256236672
         0.00436616968364
         0.00440977653489
         0.0044533838518
         0.00449699116871
         0.00454059848562
         0.00458420533687
         0.00462781265378
         0.00467141997069
         0.00471502682194
         0.00475863413885
         0.00480224145576
         0.00484584877267
         0.00488945562392
         0.00493306294084
         0.00497667025775
         0.005020277109
         0.00506388442591
         0.00510749174282
         0.00515109905973
         0.00519470591098
         0.00523831322789
         0.0052819205448
         0.00532552786171
         0.00536913471296
         0.00541274202988
         0.00545634934679
         0.00549995619804
         0.00554356351495
         0.00558717083186
         0.00563077814877
         0.00567438500002
         0.00571799231693
         0.00576159963384
         0.00580520648509
         0.005848813802
         0.00589242111892
         0.00593602843583
         0.00597963528708
         0.00602324260399
         0.0060668499209
         0.00611045677215
         0.00615406408906
         0.00619767140597
         0.00624127872288
         0.00628488557413
         0.00632849289104
         0.00637210020795
         0.00641570752487
         0.00645931437612
         0.00650292169303
         0.00654652900994
         0.00659013586119
         0.0066337431781
         0.00667735049501
         0.00672095781192
         0.00676456466317
         0.00680817198008
         0.00685177929699
         0.00689538614824
         0.00693899346516
         0.00698260078207
         0.00702620809898
         0.00706981495023
         0.00711342226714
         0.00715702958405
         0.0072006364353
         0.00724424375221
         0.00728785106912
         0.00733145838603
         0.00737506523728
         0.00741867255419
         0.00746227987111
         0.00750588718802
         0.00754949403927
         0.00759310135618
         0.00763670867309
         0.00768031552434
         0.00772392284125
         0.00776753015816
         0.00781113747507
         0.00785474479198
         0.0078983521089
         0.00794195849448
         0.0079855658114
         0.00802917312831
         0.00807278044522
         0.00811638776213
         0.00815999507904
         0.00820360239595
         0.00824720878154
         0.00829081609845
         0.00833442341536
         0.00837803073227
         0.00842163804919
         0.0084652453661
         0.00850885268301
         0.0085524590686
         0.00859606638551
         0.00863967370242
         0.00868328101933
         0.00872688833624
         0.00877049565315
         0.00881410297006
         0.00885770935565
         0.00890131667256
         0.00894492398947
         0.00898853130639
         0.0090321386233
         0.00907574594021
         0.00911935325712
         0.00916295964271
         0.00920656695962
         0.00925017427653
         0.00929378159344
         0.00933738891035
         0.00938099622726
         0.00942460354418
         0.00946820992976
         0.00951181724668
         0.00955542456359
         0.0095990318805
         0.00964263919741
         0.00968624651432
         0.00972985383123
         0.00977346021682
         0.00981706753373
         0.00986067485064
         0.00990428216755
         0.00994788948447
         0.00999149680138
         0.0100351925939
         0.0100789321586
         0.0101227741688
         0.0101667186245
         0.0102107645944
         0.010254913941
         0.0102991657332
         0.0103435209021
         0.0103879794478
         0.0104325423017
         0.0104772085324
         0.0105219781399
         0.0105668529868
         0.0106118321419
         0.0106569165364
         0.010702105239
         0.0107474001125
         0.0107928002253
         0.0108383055776
         0.0108839180321
         0.0109296357259
         0.0109754605219
         0.0110213924199
         0.0110674314201
         0.011113576591
         0.0111598307267
         0.0112061919644
         0.0112526612356
         0.0112992394716
         0.0113459257409
         0.011392720975
         0.0114396251738
         0.0114866383374
         0.011533761397
         0.0115809943527
         0.0116283372045
         0.0116757908836
         0.0117233544588
         0.0117710297927
         0.011818815954
         0.0118667129427
         0.0119147226214
         0.0119628431275
         0.0120110763237
         0.0120594222099
         0.0121078798547
         0.012156451121
         0.0122051360086
         0.0122539335862
         0.0123028447852
         0.0123518705368
         0.0124010108411
         0.0124502647668
         0.0124996341765
         0.0125491190702
         0.0125987185165
         0.0126484334469
         0.0126982647926
         0.0127482116222
         0.0127982757986
         0.0128484563902
         0.0128987533972
         0.0129491686821
         0.0129997003824
         0.0130503503606
         0.0131011186168
         0.0131520042196
         0.013203009963
         0.0132541330531
         0.0133053762838
         0.0133567387238
         0.0134082213044
         0.0134598230943
         0.0135115459561
         0.0135633889586
         0.0136153521016
         0.0136674372479
         0.0137196434662
         0.0137719716877
         0.0138244219124
         0.0138769941404
         0.013929689303
         0.0139825064689
         0.0140354475006
         0.014088511467
         0.0141416992992
         0.0141950109974
         0.0142484474927
         0.014302007854
         0.0143556930125
         0.0144095038995
         0.0144634405151
         0.0145175019279
         0.0145716900006
         0.0146260038018
         0.0146804442629
         0.0147350123152
         0.0147897070274
         0.0148445293307
         0.0148994792253
         0.0149545576423
         0.0150097636506
         0.0150650991127
         0.0151205630973
         0.0151761565357
         0.015231879428
         0.0152877327055
         0.0153437154368
         0.0153998294845
         0.0154560739174
         0.0155124496669
         0.0155689558014
         0.0156255941838
         0.0156823657453
         0.015739267692
         0.0157963037491
         0.015853472054
         0.0159107744694
         0.0159682091326
         0.0160257797688
         0.0160834826529
         0.0161413196474
         0.0161992926151
         0.0162574015558
         0.0163156446069
         0.0163740236312
         0.0164325386286
         0.016491189599
         0.0165499784052
         0.0166089031845
         0.0166679657996
         0.0167271662503
         0.0167865045369
         0.0168459825218
         0.0169055964798
         0.0169653519988
         0.0170252453536
         0.0170852784067
         0.0171454511583
         0.0172057636082
         0.0172662176192
         0.0173268131912
         0.0173875484616
         0.0174484271556
         0.0175094455481
         0.0175706073642
         0.017631912604
         0.0176933594048
         0.0177549496293
         0.0178166832775
         0.017878562212
         0.0179405845702
         0.018002750352
         0.0180650614202
         0.0181275196373
         0.0181901212782
         0.018252870068
         0.0183157641441
         0.0183788053691
         0.0184419937432
         0.0185053292662
         0.0185688119382
         0.0186324436218
         0.0186962224543
         0.0187601502985
         0.0188242271543
         0.0188884530216
         0.0189528297633
         0.0190173555166
         0.0190820321441
         0.0191468596458
         0.0192118380219
         0.0192769672722
         0.0193422492594
         0.0194076839834
         0.0194732695818
         0.0195390097797
         0.0196049008518
         0.0196709465235
