app/render/ocioconf/luts/V3_LogC_400_to_linear.spi1d
Version 1
From 0.000000 1.000000
Length 65536
Components 1
{
         -0.0166540108621
         -0.0166512709111
         -0.0166485328227
         -0.0166457947344
         -0.016643056646
         -0.016640316695
         -0.0166375786066
         -0.0166348405182
         -0.0166321024299
         -0.0166293643415
         -0.0166266243905
         -0.0166238863021
         -0.0166211482137
         -0.0166184101254
         -0.0166156701744
         -0.016612932086
         -0.0166101939976
         -0.0166074559093
         -0.0166047159582
         -0.0166019778699
         -0.0165992397815
         -0.0165965016931
         -0.0165937617421
         -0.0165910236537
         -0.0165882855654
         -0.016585547477
         -0.016582807526
         -0.0165800694376
         -0.0165773313493
         -0.0165745932609
         -0.0165718533099
         -0.0165691152215
         -0.0165663771331
         -0.0165636390448
         -0.0165608990937
         -0.0165581610054
         -0.016555422917
         -0.0165526848286
         -0.0165499467403
         -0.0165472067893
         -0.0165444687009
         -0.0165417306125
         -0.0165389925241
         -0.0165362525731
         -0.0165335144848
         -0.0165307763964
         -0.016528038308
         -0.016525298357
         -0.0165225602686
         -0.0165198221803
         -0.0165170840919
         -0.0165143441409
         -0.0165116060525
         -0.0165088679641
         -0.0165061298758
         -0.0165033899248
         -0.0165006518364
         -0.016497913748
         -0.0164951756597
         -0.0164924357086
         -0.0164896976203
         -0.0164869595319
         -0.0164842214435
         -0.0164814833552
         -0.0164787434042
         -0.0164760053158
         -0.0164732672274
         -0.016470529139
         -0.016467789188
         -0.0164650510997
         -0.0164623130113
         -0.0164595749229
         -0.0164568349719
         -0.0164540968835
         -0.0164513587952
         -0.0164486207068
         -0.0164458807558
         -0.0164431426674
         -0.016440404579
         -0.0164376664907
         -0.0164349265397
         -0.0164321884513
         -0.0164294503629
         -0.0164267122746
         -0.0164239723235
         -0.0164212342352
         -0.0164184961468
         -0.0164157580584
         -0.0164130181074
         -0.016410280019
         -0.0164075419307
         -0.0164048038423
         -0.0164020657539
         -0.0163993258029
         -0.0163965877146
         -0.0163938496262
         -0.0163911115378
         -0.0163883715868
         -0.0163856334984
         -0.0163828954101
         -0.0163801573217
         -0.0163774173707
         -0.0163746792823
         -0.0163719411939
         -0.0163692031056
         -0.0163664631546
         -0.0163637250662
         -0.0163609869778
         -0.0163582488894
         -0.0163555089384
         -0.0163527708501
         -0.0163500327617
         -0.0163472946733
         -0.0163445547223
         -0.0163418166339
         -0.0163390785456
         -0.0163363404572
         -0.0163336005062
         -0.0163308624178
         -0.0163281243294
         -0.0163253862411
         -0.0163226481527
         -0.0163199082017
         -0.0163171701133
         -0.016314432025
         -0.0163116939366
         -0.0163089539856
         -0.0163062158972
         -0.0163034778088
         -0.0163007397205
         -0.0162979997694
         -0.0162952616811
         -0.0162925235927
         -0.0162897855043
         -0.0162870455533
         -0.016284307465
         -0.0162815693766
         -0.0162788312882
         -0.0162760913372
         -0.0162733532488
         -0.0162706151605
         -0.0162678770721
         -0.0162651371211
         -0.0162623990327
         -0.0162596609443
         -0.016256922856
         -0.016254182905
         -0.0162514448166
         -0.0162487067282
         -0.0162459686399
         -0.0162432305515
         -0.0162404906005
         -0.0162377525121
         -0.0162350144237
         -0.0162322763354
         -0.0162295363843
         -0.016226798296
         -0.0162240602076
         -0.0162213221192
         -0.0162185821682
         -0.0162158440799
         -0.0162131059915
         -0.0162103679031
         -0.0162076279521
         -0.0162048898637
         -0.0162021517754
         -0.016199413687
         -0.016196673736
         -0.0161939356476
         -0.0161911975592
         -0.0161884594709
         -0.0161857195199
         -0.0161829814315
         -0.0161802433431
         -0.0161775052547
         -0.0161747653037
         -0.0161720272154
         -0.016169289127
         -0.0161665510386
         -0.0161638129503
         -0.0161610729992
         -0.0161583349109
         -0.0161555968225
         -0.0161528587341
         -0.0161501187831
         -0.0161473806947
         -0.0161446426064
         -0.016141904518
         -0.016139164567
         -0.0161364264786
         -0.0161336883903
         -0.0161309503019
         -0.0161282103509
         -0.0161254722625
         -0.0161227341741
         -0.0161199960858
         -0.0161172561347
         -0.0161145180464
         -0.016111779958
         -0.0161090418696
         -0.0161063019186
         -0.0161035638303
         -0.0161008257419
         -0.0160980876535
         -0.0160953477025
         -0.0160926096141
         -0.0160898715258
         -0.0160871334374
         -0.016084395349
         -0.016081655398
         -0.0160789173096
         -0.0160761792213
         -0.0160734411329
         -0.0160707011819
         -0.0160679630935
         -0.0160652250051
         -0.0160624869168
         -0.0160597469658
         -0.0160570088774
         -0.016054270789
         -0.0160515327007
         -0.0160487927496
         -0.0160460546613
         -0.0160433165729
         -0.0160405784845
         -0.0160378385335
         -0.0160351004452
         -0.0160323623568
         -0.0160296242684
         -0.0160268843174
         -0.016024146229
         -0.0160214081407
         -0.0160186700523
         -0.0160159319639
         -0.0160131920129
         -0.0160104539245
         -0.0160077158362
         -0.0160049777478
         -0.0160022377968
         -0.0159994997084
         -0.01599676162
         -0.0159940235317
         -0.0159912835807
         -0.0159885454923
         -0.0159858074039
         -0.0159830693156
         -0.0159803293645
         -0.0159775912762
         -0.0159748531878
         -0.0159721150994
         -0.0159693751484
         -0.01596663706
         -0.0159638989717
         -0.0159611608833
         -0.0159584209323
         -0.0159556828439
         -0.0159529447556
         -0.0159502066672
         -0.0159474667162
         -0.0159447286278
         -0.0159419905394
         -0.0159392524511
         -0.0159365143627
         -0.0159337744117
         -0.0159310363233
         -0.0159282982349
         -0.0159255601466
         -0.0159228201956
         -0.0159200821072
         -0.0159173440188
         -0.0159146059304
         -0.0159118659794
         -0.0159091278911
         -0.0159063898027
         -0.0159036517143
         -0.0159009117633
         -0.0158981736749
         -0.0158954355866
         -0.0158926974982
         -0.0158899575472
         -0.0158872194588
         -0.0158844813704
         -0.0158817432821
         -0.0158790033311
         -0.0158762652427
         -0.0158735271543
         -0.015870789066
         -0.0158680491149
         -0.0158653110266
         -0.0158625729382
         -0.0158598348498
         -0.0158570967615
         -0.0158543568105
         -0.0158516187221
         -0.0158488806337
         -0.0158461425453
         -0.0158434025943
         -0.015840664506
         -0.0158379264176
         -0.0158351883292
         -0.0158324483782
         -0.0158297102898
         -0.0158269722015
         -0.0158242341131
         -0.0158214941621
         -0.0158187560737
         -0.0158160179853
         -0.015813279897
         -0.015810539946
         -0.0158078018576
         -0.0158050637692
         -0.0158023256809
         -0.0157995857298
         -0.0157968476415
         -0.0157941095531
         -0.0157913714647
         -0.0157886315137
         -0.0157858934253
         -0.015783155337
         -0.0157804172486
         -0.0157776791602
         -0.0157749392092
         -0.0157722011209
         -0.0157694630325
         -0.0157667249441
         -0.0157639849931
         -0.0157612469047
         -0.0157585088164
         -0.015755770728
         -0.015753030777
         -0.0157502926886
         -0.0157475546002
         -0.0157448165119
         -0.0157420765609
         -0.0157393384725
         -0.0157366003841
         -0.0157338622957
         -0.0157311223447
         -0.0157283842564
         -0.015725646168
         -0.0157229080796
         -0.0157201681286
         -0.0157174300402
         -0.0157146919519
         -0.0157119538635
         -0.0157092139125
         -0.0157064758241
         -0.0157037377357
         -0.0157009996474
         -0.015698261559
         -0.015695521608
         -0.0156927835196
         -0.0156900454313
         -0.0156873073429
         -0.0156845673919
         -0.0156818293035
         -0.0156790912151
         -0.0156763531268
         -0.0156736131757
         -0.0156708750874
         -0.015668136999
         -0.0156653989106
         -0.0156626589596
         -0.0156599208713
         -0.0156571827829
         -0.0156544446945
         -0.0156517047435
         -0.0156489666551
         -0.0156462285668
         -0.0156434904784
         -0.0156407505274
         -0.015638012439
         -0.0156352743506
         -0.0156325362623
         -0.0156297963113
         -0.0156270582229
         -0.0156243201345
         -0.0156215820462
         -0.0156188430265
         -0.0156161049381
         -0.0156133659184
         -0.01561062783
         -0.0156078888103
         -0.015605150722
         -0.0156024117023
         -0.0155996736139
         -0.0155969345942
         -0.0155941965058
         -0.0155914574862
         -0.0155887193978
         -0.0155859803781
         -0.0155832422897
         -0.01558050327
         -0.0155777651817
         -0.015575026162
         -0.0155722880736
         -0.0155695490539
         -0.0155668109655
         -0.0155640719458
         -0.0155613338575
         -0.0155585948378
         -0.0155558567494
         -0.0155531177297
         -0.0155503796414
         -0.015547641553
         -0.0155449025333
         -0.0155421644449
         -0.0155394254252
         -0.0155366873369
         -0.0155339483172
         -0.0155312102288
         -0.0155284712091
         -0.0155257331207
         -0.015522994101
         -0.0155202560127
         -0.015517516993
         -0.0155147789046
         -0.0155120398849
         -0.0155093017966
         -0.0155065627769
         -0.0155038246885
         -0.0155010856688
         -0.0154983475804
         -0.0154956085607
         -0.0154928704724
         -0.0154901314527
         -0.0154873933643
         -0.0154846543446
         -0.0154819162562
         -0.0154791772366
         -0.0154764391482
         -0.0154737001285
         -0.0154709620401
         -0.0154682239518
         -0.0154654849321
         -0.0154627468437
         -0.015460007824
         -0.0154572697356
         -0.0154545307159
         -0.0154517926276
         -0.0154490536079
         -0.0154463155195
         -0.0154435764998
         -0.0154408384115
         -0.0154380993918
         -0.0154353613034
         -0.0154326222837
         -0.0154298841953
         -0.0154271451756
         -0.0154244070873
         -0.0154216680676
         -0.0154189299792
         -0.0154161909595
         -0.0154134528711
         -0.0154107138515
         -0.0154079757631
         -0.0154052367434
         -0.015402498655
         -0.0153997596353
         -0.015397021547
         -0.0153942834586
         -0.0153915444389
         -0.0153888063505
         -0.0153860673308
         -0.0153833292425
         -0.0153805902228
         -0.0153778521344
         -0.0153751131147
         -0.0153723750263
         -0.0153696360067
         -0.0153668979183
         -0.0153641588986
         -0.0153614208102
         -0.0153586817905
         -0.0153559437022
         -0.0153532046825
         -0.0153504665941
         -0.0153477275744
         -0.015344989486
         -0.0153422504663
         -0.015339512378
         -0.0153367733583
         -0.0153340352699
         -0.0153312962502
         -0.0153285581619
         -0.0153258191422
         -0.0153230810538
         -0.0153203420341
         -0.0153176039457
         -0.0153148658574
         -0.0153121268377
         -0.0153093887493
         -0.0153066497296
         -0.0153039116412
         -0.0153011726215
         -0.0152984345332
         -0.0152956955135
         -0.0152929574251
         -0.0152902184054
         -0.0152874803171
         -0.0152847412974
         -0.015282003209
         -0.0152792641893
         -0.0152765261009
         -0.0152737870812
         -0.0152710489929
         -0.0152683099732
         -0.0152655718848
         -0.0152628328651
         -0.0152600947767
         -0.0152573557571
         -0.0152546176687
         -0.015251878649
         -0.0152491405606
         -0.0152464015409
         -0.0152436634526
         -0.0152409253642
         -0.0152381863445
         -0.0152354482561
         -0.0152327092364
         -0.0152299711481
         -0.0152272321284
         -0.01522449404
         -0.0152217550203
         -0.015219016932
         -0.0152162779123
         -0.0152135398239
         -0.0152108008042
         -0.0152080627158
         -0.0152053236961
         -0.0152025856078
         -0.0151998465881
         -0.0151971084997
         -0.01519436948
         -0.0151916313916
         -0.015188892372
         -0.0151861542836
         -0.0151834152639
         -0.0151806771755
         -0.0151779381558
         -0.0151752000675
         -0.0151724610478
         -0.0151697229594
         -0.0151669839397
         -0.0151642458513
         -0.015161507763
         -0.0151587687433
         -0.0151560306549
         -0.0151532916352
         -0.0151505535468
         -0.0151478145272
         -0.0151450764388
         -0.0151423374191
         -0.0151395993307
         -0.015136860311
         -0.0151341222227
         -0.015131383203
         -0.0151286451146
         -0.0151259060949
         -0.0151231680065
         -0.0151204289868
         -0.0151176908985
         -0.0151149518788
         -0.0151122137904
         -0.0151094747707
         -0.0151067366824
         -0.0151039976627
         -0.0151012595743
         -0.0150985205546
         -0.0150957824662
         -0.0150930434465
         -0.0150903053582
         -0.0150875663385
         -0.0150848282501
         -0.0150820901617
         -0.015079351142
         -0.0150766130537
         -0.015073874034
         -0.0150711359456
         -0.0150683969259
         -0.0150656588376
         -0.0150629198179
         -0.0150601817295
         -0.0150574427098
         -0.0150547046214
         -0.0150519656017
         -0.0150492275134
         -0.0150464884937
         -0.0150437504053
         -0.0150410113856
         -0.0150382732973
         -0.0150355342776
         -0.0150327961892
         -0.0150300571695
         -0.0150273190811
         -0.0150245800614
         -0.0150218419731
         -0.0150191029534
         -0.015016364865
         -0.0150136258453
         -0.0150108877569
         -0.0150081496686
         -0.0150054106489
         -0.0150026725605
         -0.0149999335408
         -0.0149971954525
         -0.0149944564328
         -0.0149917183444
         -0.0149889793247
         -0.0149862412363
         -0.0149835022166
         -0.0149807641283
         -0.0149780251086
         -0.0149752870202
         -0.0149725480005
         -0.0149698099121
         -0.0149670708925
         -0.0149643328041
         -0.0149615937844
         -0.014958855696
         -0.0149561166763
         -0.014953378588
         -0.0149506395683
         -0.0149479014799
         -0.0149451624602
         -0.0149424243718
         -0.0149396853521
         -0.0149369472638
         -0.0149342082441
         -0.0149314701557
         -0.0149287320673
         -0.0149259930477
         -0.0149232549593
         -0.0149205159396
         -0.0149177778512
         -0.0149150388315
         -0.0149123007432
         -0.0149095617235
         -0.0149068236351
         -0.0149040846154
         -0.014901346527
         -0.0148986075073
         -0.014895869419
         -0.0148931303993
         -0.0148903923109
         -0.0148876532912
         -0.0148849152029
         -0.0148821761832
         -0.0148794380948
         -0.0148766990751
         -0.0148739609867
         -0.014871221967
         -0.0148684838787
         -0.014865744859
         -0.0148630067706
         -0.0148602677509
         -0.0148575296625
         -0.0148547906429
         -0.0148520525545
         -0.0148493144661
         -0.0148465754464
         -0.0148438373581
         -0.0148410983384
         -0.01483836025
         -0.0148356212303
         -0.0148328831419
         -0.0148301441222
         -0.0148274060339
         -0.0148246670142
         -0.0148219289258
         -0.0148191899061
         -0.0148164518178
         -0.0148137127981
         -0.0148109747097
         -0.01480823569
         -0.0148054976016
         -0.0148027585819
         -0.0148000204936
         -0.0147972814739
         -0.0147945433855
         -0.0147918043658
         -0.0147890662774
         -0.0147863272578
         -0.0147835891694
         -0.0147808501497
         -0.0147781120613
         -0.014775373973
         -0.0147726349533
         -0.0147698968649
         -0.0147671578452
         -0.0147644197568
         -0.0147616807371
         -0.0147589426488
         -0.0147562036291
         -0.0147534655407
         -0.014750726521
         -0.0147479884326
         -0.014745249413
         -0.0147425113246
         -0.0147397723049
         -0.0147370342165
         -0.0147342951968
         -0.0147315571085
         -0.0147288180888
         -0.0147260800004
         -0.0147233409807
         -0.0147206028923
         -0.0147178638726
         -0.0147151257843
         -0.0147123867646
         -0.0147096486762
         -0.0147069096565
         -0.0147041715682
         -0.0147014325485
         -0.0146986944601
         -0.0146959563717
         -0.014693217352
         -0.0146904792637
         -0.014687740244
         -0.0146850021556
         -0.0146822631359
         -0.0146795250475
         -0.0146767860278
         -0.0146740479395
         -0.0146713089198
         -0.0146685708314
         -0.0146658318117
         -0.0146630937234
         -0.0146603547037
         -0.0146576166153
         -0.0146548775956
         -0.0146521395072
         -0.0146494004875
         -0.0146466623992
         -0.0146439233795
         -0.0146411852911
         -0.0146384462714
         -0.0146357081831
         -0.0146329691634
         -0.014630231075
         -0.0146274920553
         -0.0146247539669
         -0.0146220149472
         -0.0146192768589
         -0.0146165387705
         -0.0146137997508
         -0.0146110616624
         -0.0146083226427
         -0.0146055845544
         -0.0146028455347
         -0.0146001074463
         -0.0145973684266
         -0.0145946303383
         -0.0145918913186
         -0.0145891532302
         -0.0145864142105
         -0.0145836761221
         -0.0145809371024
         -0.0145781990141
         -0.0145754599944
         -0.014572721906
         -0.0145699828863
         -0.0145672447979
         -0.0145645057783
         -0.0145617676899
         -0.0145590286702
         -0.0145562905818
         -0.0145535515621
         -0.0145508134738
         -0.0145480744541
         -0.0145453363657
         -0.0145425982773
         -0.0145398592576
         -0.0145371211693
         -0.0145343821496
         -0.0145316440612
         -0.0145289050415
         -0.0145261669531
         -0.0145234279335
         -0.0145206898451
         -0.0145179508254
         -0.014515212737
         -0.0145124737173
         -0.014509735629
         -0.0145069966093
         -0.0145042585209
         -0.0145015195012
         -0.0144987814128
         -0.0144960423931
         -0.0144933043048
         -0.0144905652851
         -0.0144878271967
         -0.014485088177
         -0.0144823500887
         -0.014479611069
         -0.0144768729806
         -0.0144741339609
         -0.0144713958725
         -0.0144686568528
         -0.0144659187645
         -0.0144631806761
         -0.0144604416564
         -0.014457703568
         -0.0144549645483
         -0.01445222646
         -0.0144494874403
         -0.0144467493519
         -0.0144440103322
         -0.0144412722439
         -0.0144385332242
         -0.0144357951358
         -0.0144330561161
         -0.0144303180277
         -0.014427579008
         -0.0144248409197
         -0.0144221019
         -0.0144193638116
         -0.0144166247919
         -0.0144138867036
         -0.0144111476839
         -0.0144084095955
         -0.0144056705758
         -0.0144029324874
         -0.0144001934677
         -0.0143974553794
         -0.0143947163597
         -0.0143919782713
         -0.0143892392516
         -0.0143865011632
         -0.0143837630749
         -0.0143810240552
         -0.0143782859668
         -0.0143755469471
         -0.0143728088588
         -0.0143700698391
         -0.0143673317507
         -0.014364592731
         -0.0143618546426
         -0.0143591156229
         -0.0143563775346
         -0.0143536385149
         -0.0143509004265
         -0.0143481614068
         -0.0143454233184
         -0.0143426842988
         -0.0143399462104
         -0.0143372071907
         -0.0143344691023
         -0.0143317300826
         -0.0143289919943
         -0.0143262529746
         -0.0143235148862
         -0.0143207758665
         -0.0143180377781
         -0.0143152987584
         -0.0143125606701
         -0.0143098225817
         -0.014307083562
         -0.0143043454736
         -0.014301606454
         -0.0142988683656
         -0.0142961293459
         -0.0142933912575
         -0.0142906522378
         -0.0142879141495
         -0.0142851751298
         -0.0142824370414
         -0.0142796980217
         -0.0142769599333
         -0.0142742209136
         -0.0142714828253
         -0.0142687438056
         -0.0142660057172
         -0.0142632666975
         -0.0142605286092
         -0.0142577895895
         -0.0142550515011
         -0.0142523124814
         -0.014249574393
         -0.0142468353733
         -0.014244097285
         -0.0142413582653
         -0.0142386201769
         -0.0142358811572
         -0.0142331430689
         -0.0142304049805
         -0.0142276659608
         -0.0142249278724
         -0.0142221888527
         -0.0142194507644
         -0.0142167117447
         -0.0142139736563
         -0.0142112346366
         -0.0142084965482
         -0.0142057575285
         -0.0142030194402
         -0.0142002804205
         -0.0141975423321
         -0.0141948033124
         -0.0141920652241
         -0.0141893262044
         -0.014186588116
         -0.0141838490963
         -0.0141811110079
         -0.0141783719882
         -0.0141756338999
         -0.0141728948802
         -0.0141701567918
         -0.0141674177721
         -0.0141646796837
         -0.0141619406641
         -0.0141592025757
         -0.014156463556
         -0.0141537254676
         -0.0141509873793
         -0.0141482483596
         -0.0141455102712
         -0.0141427712515
         -0.0141400331631
         -0.0141372941434
         -0.0141345560551
         -0.0141318170354
         -0.014129078947
         -0.0141263399273
