app/render/ocioconf/luts/V3_LogC_800_to_linear.spi1d
Version 1
From 0.000000 1.000000
Length 65536
Components 1
{
         -0.0172904860228
         -0.0172876417637
         -0.0172847993672
         -0.0172819569707
         -0.0172791145742
         -0.0172762721777
         -0.0172734279186
         -0.0172705855221
         -0.0172677431256
         -0.0172649007291
         -0.0172620583326
         -0.0172592140734
         -0.0172563716769
         -0.0172535292804
         -0.0172506868839
         -0.0172478444874
         -0.0172450002283
         -0.0172421578318
         -0.0172393154353
         -0.0172364730388
         -0.0172336306423
         -0.0172307863832
         -0.0172279439867
         -0.0172251015902
         -0.0172222591937
         -0.0172194167972
         -0.017216572538
         -0.0172137301415
         -0.017210887745
         -0.0172080453485
         -0.017205202952
         -0.0172023586929
         -0.0171995162964
         -0.0171966738999
         -0.0171938315034
         -0.0171909891069
         -0.0171881448478
         -0.0171853024513
         -0.0171824600548
         -0.0171796176583
         -0.0171767752618
         -0.0171739310026
         -0.0171710886061
         -0.0171682462096
         -0.0171654038131
         -0.0171625614166
         -0.0171597171575
         -0.017156874761
         -0.0171540323645
         -0.017151189968
         -0.0171483475715
         -0.0171455033123
         -0.0171426609159
         -0.0171398185194
         -0.0171369761229
         -0.0171341337264
         -0.0171312894672
         -0.0171284470707
         -0.0171256046742
         -0.0171227622777
         -0.0171199198812
         -0.0171170756221
         -0.0171142332256
         -0.0171113908291
         -0.0171085484326
         -0.0171057060361
         -0.0171028617769
         -0.0171000193805
         -0.017097176984
         -0.0170943345875
         -0.017091492191
         -0.0170886479318
         -0.0170858055353
         -0.0170829631388
         -0.0170801207423
         -0.0170772783458
         -0.0170744340867
         -0.0170715916902
         -0.0170687492937
         -0.0170659068972
         -0.0170630645007
         -0.0170602202415
         -0.017057377845
         -0.0170545354486
         -0.0170516930521
         -0.0170488506556
         -0.0170460063964
         -0.0170431639999
         -0.0170403216034
         -0.0170374792069
         -0.0170346368104
         -0.0170317925513
         -0.0170289501548
         -0.0170261077583
         -0.0170232653618
         -0.0170204211026
         -0.0170175787061
         -0.0170147363096
         -0.0170118939131
         -0.0170090515167
         -0.0170062072575
         -0.017003364861
         -0.0170005224645
         -0.016997680068
         -0.0169948376715
         -0.0169919934124
         -0.0169891510159
         -0.0169863086194
         -0.0169834662229
         -0.0169806238264
         -0.0169777795672
         -0.0169749371707
         -0.0169720947742
         -0.0169692523777
         -0.0169664099813
         -0.0169635657221
         -0.0169607233256
         -0.0169578809291
         -0.0169550385326
         -0.0169521961361
         -0.016949351877
         -0.0169465094805
         -0.016943667084
         -0.0169408246875
         -0.016937982291
         -0.0169351380318
         -0.0169322956353
         -0.0169294532388
         -0.0169266108423
         -0.0169237684458
         -0.0169209241867
         -0.0169180817902
         -0.0169152393937
         -0.0169123969972
         -0.0169095546007
         -0.0169067103416
         -0.0169038679451
         -0.0169010255486
         -0.0168981831521
         -0.0168953407556
         -0.0168924964964
         -0.0168896540999
         -0.0168868117034
         -0.0168839693069
         -0.0168811269104
         -0.0168782826513
         -0.0168754402548
         -0.0168725978583
         -0.0168697554618
         -0.0168669130653
         -0.0168640688062
         -0.0168612264097
         -0.0168583840132
         -0.0168555416167
         -0.0168526992202
         -0.016849854961
         -0.0168470125645
         -0.016844170168
         -0.0168413277715
         -0.016838485375
         -0.0168356411159
         -0.0168327987194
         -0.0168299563229
         -0.0168271139264
         -0.0168242715299
         -0.0168214272708
         -0.0168185848743
         -0.0168157424778
         -0.0168129000813
         -0.0168100576848
         -0.0168072134256
         -0.0168043710291
         -0.0168015286326
         -0.0167986862361
         -0.0167958438396
         -0.0167929995805
         -0.016790157184
         -0.0167873147875
         -0.016784472391
         -0.0167816299945
         -0.0167787857354
         -0.0167759433389
         -0.0167731009424
         -0.0167702585459
         -0.0167674161494
         -0.0167645718902
         -0.0167617294937
         -0.0167588870972
         -0.0167560447007
         -0.0167532023042
         -0.0167503580451
         -0.0167475156486
         -0.0167446732521
         -0.0167418308556
         -0.0167389884591
         -0.0167361442
         -0.0167333018035
         -0.016730459407
         -0.0167276170105
         -0.0167247727513
         -0.0167219303548
         -0.0167190879583
         -0.0167162455618
         -0.0167134031653
         -0.0167105589062
         -0.0167077165097
         -0.0167048741132
         -0.0167020317167
         -0.0166991893202
         -0.0166963450611
         -0.0166935026646
         -0.0166906602681
         -0.0166878178716
         -0.0166849754751
         -0.0166821312159
         -0.0166792888194
         -0.0166764464229
         -0.0166736040264
         -0.0166707616299
         -0.0166679173708
         -0.0166650749743
         -0.0166622325778
         -0.0166593901813
         -0.0166565477848
         -0.0166537035257
         -0.0166508611292
         -0.0166480187327
         -0.0166451763362
         -0.0166423339397
         -0.0166394896805
         -0.016636647284
         -0.0166338048875
         -0.016630962491
         -0.0166281200945
         -0.0166252758354
         -0.0166224334389
         -0.0166195910424
         -0.0166167486459
         -0.0166139062494
         -0.0166110619903
         -0.0166082195938
         -0.0166053771973
         -0.0166025348008
         -0.0165996924043
         -0.0165968481451
         -0.0165940057486
         -0.0165911633521
         -0.0165883209556
         -0.0165854785591
         -0.0165826343
         -0.0165797919035
         -0.016576949507
         -0.0165741071105
         -0.016571264714
         -0.0165684204549
         -0.0165655780584
         -0.0165627356619
         -0.0165598932654
         -0.0165570508689
         -0.0165542066097
         -0.0165513642132
         -0.0165485218167
         -0.0165456794202
         -0.0165428370237
         -0.0165399927646
         -0.0165371503681
         -0.0165343079716
         -0.0165314655751
         -0.0165286231786
         -0.0165257789195
         -0.016522936523
         -0.0165200941265
         -0.01651725173
         -0.0165144093335
         -0.0165115650743
         -0.0165087226778
         -0.0165058802813
         -0.0165030378848
         -0.0165001954883
         -0.0164973512292
         -0.0164945088327
         -0.0164916664362
         -0.0164888240397
         -0.0164859816432
         -0.0164831373841
         -0.0164802949876
         -0.0164774525911
         -0.0164746101946
         -0.0164717677981
         -0.0164689235389
         -0.0164660811424
         -0.0164632387459
         -0.0164603963494
         -0.0164575539529
         -0.0164547096938
         -0.0164518672973
         -0.0164490249008
         -0.0164461825043
         -0.0164433401078
         -0.0164404958487
         -0.0164376534522
         -0.0164348110557
         -0.0164319686592
         -0.0164291244
         -0.0164262820035
         -0.016423439607
         -0.0164205972105
         -0.016417754814
         -0.0164149105549
         -0.0164120681584
         -0.0164092257619
         -0.0164063833654
         -0.0164035409689
         -0.0164006967098
         -0.0163978543133
         -0.0163950119168
         -0.0163921695203
         -0.0163893271238
         -0.0163864828646
         -0.0163836404681
         -0.0163807980716
         -0.0163779556751
         -0.0163751132786
         -0.0163722690195
         -0.016369426623
         -0.0163665842265
         -0.01636374183
         -0.0163608994335
         -0.0163580551744
         -0.0163552127779
         -0.0163523703814
         -0.0163495279849
         -0.0163466855884
         -0.0163438413292
         -0.0163409989327
         -0.0163381565362
         -0.0163353141397
         -0.0163324717432
         -0.0163296274841
         -0.0163267850876
         -0.0163239426911
         -0.0163211002946
         -0.0163182578981
         -0.0163154136389
         -0.0163125712425
         -0.016309728846
         -0.0163068864495
         -0.016304044053
         -0.0163011997938
         -0.0162983573973
         -0.0162955150008
         -0.0162926726043
         -0.0162898302078
         -0.0162869859487
         -0.0162841435522
         -0.0162813011557
         -0.0162784587592
         -0.0162756163627
         -0.0162727721035
         -0.0162699297071
         -0.0162670873106
         -0.0162642449141
         -0.0162614025176
         -0.0162585582584
         -0.0162557158619
         -0.0162528734654
         -0.0162500310689
         -0.0162471886724
         -0.0162443444133
         -0.0162415020168
         -0.0162386596203
         -0.0162358172238
         -0.0162329748273
         -0.0162301305681
         -0.0162272881716
         -0.0162244457752
         -0.0162216033787
         -0.0162187609822
         -0.016215916723
         -0.0162130743265
         -0.01621023193
         -0.0162073895335
         -0.016204547137
         -0.0162017028779
         -0.0161988604814
         -0.0161960180849
         -0.0161931756884
         -0.0161903332919
         -0.0161874890327
         -0.0161846466362
         -0.0161818042397
         -0.0161789618433
         -0.0161761194468
         -0.0161732751876
         -0.0161704327911
         -0.0161675903946
         -0.0161647479981
         -0.0161619056016
         -0.0161590613425
         -0.016156218946
         -0.0161533765495
         -0.016150534153
         -0.0161476917565
         -0.0161448474973
         -0.0161420051008
         -0.0161391627043
         -0.0161363203079
         -0.0161334779114
         -0.0161306336522
         -0.0161277912557
         -0.0161249488592
         -0.0161221064627
         -0.0161192622036
         -0.0161164198071
         -0.0161135774106
         -0.0161107350141
         -0.0161078926176
         -0.0161050483584
         -0.0161022059619
         -0.0160993635654
         -0.0160965211689
         -0.0160936787724
         -0.0160908345133
         -0.0160879921168
         -0.0160851497203
         -0.0160823073238
         -0.0160794649273
         -0.0160766206682
         -0.0160737782717
         -0.0160709358752
         -0.0160680934787
         -0.0160652510822
         -0.016062406823
         -0.0160595644265
         -0.01605672203
         -0.0160538796335
         -0.016051037237
         -0.0160481929779
         -0.0160453505814
         -0.0160425081849
         -0.0160396657884
         -0.0160368233919
         -0.0160339791328
         -0.0160311367363
         -0.0160282943398
         -0.0160254519433
         -0.0160226095468
         -0.0160197652876
         -0.0160169228911
         -0.0160140804946
         -0.0160112380981
         -0.0160083957016
         -0.0160055514425
         -0.016002709046
         -0.0159998666495
         -0.015997024253
         -0.0159941818565
         -0.0159913375974
         -0.0159884952009
         -0.0159856528044
         -0.0159828104079
         -0.0159799680114
         -0.0159771237522
         -0.0159742813557
         -0.0159714389592
         -0.0159685965627
         -0.0159657541662
         -0.0159629099071
         -0.0159600675106
         -0.0159572251141
         -0.0159543827176
         -0.0159515403211
         -0.015948696062
         -0.0159458536655
         -0.015943011269
         -0.0159401688725
         -0.015937326476
         -0.0159344822168
         -0.0159316398203
         -0.0159287974238
         -0.0159259550273
         -0.0159231126308
         -0.0159202683717
         -0.0159174259752
         -0.0159145835787
         -0.0159117411822
         -0.0159088987857
         -0.0159060545266
         -0.0159032121301
         -0.0159003697336
         -0.0158975273371
         -0.0158946849406
         -0.0158918406814
         -0.0158889982849
         -0.0158861558884
         -0.0158833134919
         -0.0158804710954
         -0.0158776268363
         -0.0158747844398
         -0.0158719420433
         -0.0158690996468
         -0.0158662572503
         -0.0158634129912
         -0.0158605705947
         -0.0158577281982
         -0.0158548858017
         -0.0158520434052
         -0.015849199146
         -0.0158463567495
         -0.015843514353
         -0.0158406719565
         -0.01583782956
         -0.0158349853009
         -0.0158321429044
         -0.0158293005079
         -0.0158264581114
         -0.0158236138523
         -0.0158207714558
         -0.0158179290593
         -0.0158150866628
         -0.0158122442663
         -0.0158094000071
         -0.0158065576106
         -0.0158037152141
         -0.0158008728176
         -0.0157980304211
         -0.015795186162
         -0.0157923437655
         -0.015789501369
         -0.0157866589725
         -0.015783816576
         -0.0157809723169
         -0.0157781299204
         -0.0157752875239
         -0.0157724451274
         -0.0157696027309
         -0.0157667584717
         -0.0157639160752
         -0.0157610736787
         -0.0157582312822
         -0.0157553888857
         -0.0157525446266
         -0.0157497022301
         -0.0157468598336
         -0.0157440174371
         -0.0157411750406
         -0.0157383307815
         -0.015735488385
         -0.0157326459885
         -0.015729803592
         -0.0157269611955
         -0.0157241169363
         -0.0157212745398
         -0.0157184321433
         -0.0157155897468
         -0.0157127473503
         -0.0157099030912
         -0.0157070606947
         -0.0157042182982
         -0.0157013759017
         -0.0156985335052
         -0.0156956892461
         -0.0156928468496
         -0.0156900044531
         -0.0156871620566
         -0.0156843196601
         -0.0156814754009
         -0.0156786330044
         -0.0156757906079
         -0.0156729482114
         -0.0156701058149
         -0.0156672615558
         -0.0156644191593
         -0.0156615767628
         -0.0156587343663
         -0.0156558919698
         -0.0156530477107
         -0.0156502053142
         -0.0156473629177
         -0.0156445205212
         -0.0156416781247
         -0.0156388338655
         -0.015635991469
         -0.0156331490725
         -0.015630306676
         -0.0156274642795
         -0.0156246209517
         -0.0156217776239
         -0.0156189352274
         -0.0156160928309
         -0.0156132495031
         -0.0156104071066
         -0.0156075637788
         -0.0156047213823
         -0.0156018780544
         -0.0155990356579
         -0.0155961932614
         -0.0155933499336
         -0.0155905075371
         -0.0155876642093
         -0.0155848218128
         -0.0155819794163
         -0.0155791360885
         -0.015576293692
         -0.0155734503642
         -0.0155706079677
         -0.0155677655712
         -0.0155649222434
         -0.0155620798469
         -0.015559236519
         -0.0155563941225
         -0.015553551726
         -0.0155507083982
         -0.0155478660017
         -0.0155450226739
         -0.0155421802774
         -0.0155393378809
         -0.0155364945531
         -0.0155336521566
         -0.0155308088288
         -0.0155279664323
         -0.0155251240358
         -0.015522280708
         -0.0155194383115
         -0.0155165949836
         -0.0155137525871
         -0.0155109101906
         -0.0155080668628
         -0.0155052244663
         -0.0155023811385
         -0.015499538742
         -0.0154966963455
         -0.0154938530177
         -0.0154910106212
         -0.0154881672934
         -0.0154853248969
         -0.0154824825004
         -0.0154796391726
         -0.0154767967761
         -0.0154739534482
         -0.0154711110517
         -0.0154682686552
         -0.0154654253274
         -0.0154625829309
         -0.0154597396031
         -0.0154568972066
         -0.0154540538788
         -0.0154512114823
         -0.0154483690858
         -0.015445525758
         -0.0154426833615
         -0.0154398400337
         -0.0154369976372
         -0.0154341552407
         -0.0154313119128
         -0.0154284695163
         -0.0154256261885
         -0.015422783792
         -0.0154199413955
         -0.0154170980677
         -0.0154142556712
         -0.0154114123434
         -0.0154085699469
         -0.0154057275504
         -0.0154028842226
         -0.0154000418261
         -0.0153971984982
         -0.0153943561018
         -0.0153915137053
         -0.0153886703774
         -0.0153858279809
         -0.0153829846531
         -0.0153801422566
         -0.0153772998601
         -0.0153744565323
         -0.0153716141358
         -0.015368770808
         -0.0153659284115
         -0.015363086015
         -0.0153602426872
         -0.0153574002907
         -0.0153545569628
         -0.0153517145663
         -0.0153488721699
         -0.015346028842
         -0.0153431864455
         -0.0153403431177
         -0.0153375007212
         -0.0153346583247
         -0.0153318149969
         -0.0153289726004
         -0.0153261292726
         -0.0153232868761
         -0.0153204444796
         -0.0153176011518
         -0.0153147587553
         -0.0153119154274
         -0.0153090730309
         -0.0153062297031
         -0.0153033873066
         -0.0153005449101
         -0.0152977015823
         -0.0152948591858
         -0.015292015858
         -0.0152891734615
         -0.015286331065
         -0.0152834877372
         -0.0152806453407
         -0.0152778020129
         -0.0152749596164
         -0.0152721172199
         -0.015269273892
         -0.0152664314955
         -0.0152635881677
         -0.0152607457712
         -0.0152579033747
         -0.0152550600469
         -0.0152522176504
         -0.0152493743226
         -0.0152465319261
         -0.0152436895296
         -0.0152408462018
         -0.0152380038053
         -0.0152351604775
         -0.015232318081
         -0.0152294756845
         -0.0152266323566
         -0.0152237899601
         -0.0152209466323
         -0.0152181042358
         -0.0152152618393
         -0.0152124185115
         -0.015209576115
         -0.0152067327872
         -0.0152038903907
         -0.0152010479942
         -0.0151982046664
         -0.0151953622699
         -0.0151925189421
         -0.0151896765456
         -0.0151868341491
         -0.0151839908212
         -0.0151811484247
         -0.0151783050969
         -0.0151754627004
         -0.0151726203039
         -0.0151697769761
         -0.0151669345796
         -0.0151640912518
         -0.0151612488553
         -0.0151584055275
         -0.015155563131
         -0.0151527207345
         -0.0151498774067
         -0.0151470350102
         -0.0151441916823
         -0.0151413492858
         -0.0151385068893
         -0.0151356635615
         -0.015132821165
         -0.0151299778372
         -0.0151271354407
         -0.0151242930442
         -0.0151214497164
         -0.0151186073199
         -0.0151157639921
         -0.0151129215956
         -0.0151100791991
         -0.0151072358713
         -0.0151043934748
         -0.0151015501469
         -0.0150987077504
         -0.0150958653539
         -0.0150930220261
         -0.0150901796296
         -0.0150873363018
         -0.0150844939053
         -0.0150816515088
         -0.015078808181
         -0.0150759657845
         -0.0150731224567
         -0.0150702800602
         -0.0150674376637
         -0.0150645943359
         -0.0150617519394
         -0.0150589086115
         -0.015056066215
         -0.0150532238185
         -0.0150503804907
         -0.0150475380942
         -0.0150446947664
         -0.0150418523699
         -0.0150390099734
         -0.0150361666456
         -0.0150333242491
         -0.0150304809213
         -0.0150276385248
         -0.0150247961283
         -0.0150219528005
         -0.015019110404
         -0.0150162670761
         -0.0150134246796
         -0.0150105813518
         -0.0150077389553
         -0.0150048965588
         -0.015002053231
         -0.0149992108345
         -0.0149963675067
         -0.0149935251102
         -0.0149906827137
         -0.0149878393859
         -0.0149849969894
         -0.0149821536615
         -0.0149793112651
         -0.0149764688686
         -0.0149736255407
         -0.0149707831442
         -0.0149679398164
         -0.0149650974199
         -0.0149622550234
         -0.0149594116956
         -0.0149565692991
         -0.0149537259713
         -0.0149508835748
         -0.0149480411783
         -0.0149451978505
         -0.014942355454
         -0.0149395121261
         -0.0149366697297
         -0.0149338273332
         -0.0149309840053
         -0.0149281416088
         -0.014925298281
         -0.0149224558845
         -0.014919613488
         -0.0149167701602
         -0.0149139277637
         -0.0149110844359
         -0.0149082420394
         -0.0149053996429
         -0.0149025563151
         -0.0148997139186
         -0.0148968705907
         -0.0148940281942
         -0.0148911857978
         -0.0148883424699
         -0.0148855000734
         -0.0148826567456
         -0.0148798143491
         -0.0148769719526
         -0.0148741286248
         -0.0148712862283
         -0.0148684429005
         -0.014865600504
         -0.0148627571762
         -0.0148599147797
         -0.0148570723832
         -0.0148542290553
         -0.0148513866588
         -0.014848543331
         -0.0148457009345
         -0.014842858538
         -0.0148400152102
         -0.0148371728137
         -0.0148343294859
         -0.0148314870894
         -0.0148286446929
         -0.0148258013651
         -0.0148229589686
         -0.0148201156408
         -0.0148172732443
         -0.0148144308478
         -0.0148115875199
         -0.0148087451234
         -0.0148059017956
         -0.0148030593991
         -0.0148002170026
         -0.0147973736748
         -0.0147945312783
         -0.0147916879505
         -0.014788845554
         -0.0147860031575
         -0.0147831598297
         -0.0147803174332
         -0.0147774741054
         -0.0147746317089
         -0.0147717893124
         -0.0147689459845
         -0.014766103588
         -0.0147632602602
         -0.0147604178637
         -0.0147575754672
         -0.0147547321394
         -0.0147518897429
         -0.0147490464151
         -0.0147462040186
         -0.0147433616221
         -0.0147405182943
         -0.0147376758978
         -0.01473483257
         -0.0147319901735
         -0.014729147777
         -0.0147263044491
         -0.0147234620526
         -0.0147206187248
         -0.0147177763283
         -0.0147149330005
         -0.014712090604
         -0.0147092482075
         -0.0147064048797
         -0.0147035624832
         -0.0147007191554
         -0.0146978767589
         -0.0146950343624
         -0.0146921910346
         -0.0146893486381
         -0.0146865053102
         -0.0146836629137
         -0.0146808205172
         -0.0146779771894
         -0.0146751347929
         -0.0146722914651
         -0.0146694490686
         -0.0146666066721
